/PROG  PLUSWAAM2	
/ATTR
OWNER		= MNEDITOR;
COMMENT		= "";
PROG_SIZE	= 13487;
CREATE		= DATE 100-01-13  TIME 23:02:06;
MODIFIED	= DATE 100-01-14  TIME 00:49:26;
FILE_NAME	= ;
VERSION    	= 0;
LINE_COUNT	= 304;
MEMORY_SIZE	= 13807;
PROTECT		= READ_WRITE;
TCD:  STACK_SIZE	= 0,
      TASK_PRIORITY	= 50,
      TIME_SLICE	= 0,
      BUSY_LAMP_OFF	= 0,
      ABORT_REQUEST	= 0,
      PAUSE_REQUEST	= 0;
DEFAULT_GROUP	= 1,*,*,*,*;
CONTROL_CODE	= 00000000 00000000;
/APPL
  ARC Welding Equipment Number : 1 ;
/MN
 1:J P[26] 100% FINE  ;
 2:L P[1] 40cm/min FINE  ;
 3:  CALL SUB_START ;
 4:   ;
 5:L P[2] 40cm/min CNT100  ;
 6:L P[3] 40cm/min CNT100  ;
 7:L P[4] 40cm/min CNT100  ;
 8:L P[5] 40cm/min CNT100  ;
 9:L P[6] 40cm/min CNT100  ;
 10:L P[7] 40cm/min CNT100  ;
 11:L P[8] 40cm/min CNT100  ;
 12:L P[9] 40cm/min CNT100  ;
 13:L P[10] 40cm/min CNT100  ;
 14:L P[11] 40cm/min CNT100  ;
 15:L P[12] 40cm/min CNT100  ;
 16:L P[13] 40cm/min CNT50  ;
 17:L P[14] 40cm/min CNT100  ;
 18:L P[15] 40cm/min CNT100  ;
 19:L P[16] 40cm/min CNT100  ;
 20:L P[17] 40cm/min CNT100  ;
 21:L P[18] 40cm/min CNT100  ;
 22:L P[19] 40cm/min CNT50  ;
 23:L P[20] 40cm/min CNT100  ;
 24:L P[21] 40cm/min CNT100  ;
 25:L P[22] 40cm/min CNT100  ;
 26:L P[23] 40cm/min CNT100  ;
 27:L P[24] 40cm/min CNT100  ;
 28:L P[25] 40cm/min FINE  ;
 29:  CALL SUB_END ;
 30:   ;
 31:L P[31] 100mm/sec FINE  ;
 32:   ;
 33:L P[27] 40cm/min FINE  ;
 34:  CALL SUB_START ;
 35:   ;
 36:L P[28] 40cm/min CNT100  ;
 37:   ;
 38:L P[29] 40cm/min CNT100  ;
 39:L P[30] 40cm/min CNT100  ;
 40:   ;
 41:L P[32] 40cm/min CNT100  ;
 42:L P[33] 40cm/min CNT100  ;
 43:   ;
 44:L P[34] 40cm/min CNT100  ;
 45:L P[35] 40cm/min FINE  ;
 46:  CALL SUB_END ;
 47:   ;
 48:L P[36] 40cm/min FINE  ;
 49:   ;
 50:L P[37] 100mm/sec FINE  ;
 51:L P[38] 40cm/min FINE  ;
 52:  CALL SUB_START ;
 53:   ;
 54:L P[39] 40cm/min CNT100  ;
 55:   ;
 56:L P[40] 40cm/min CNT100  ;
 57:L P[41] 40cm/min CNT100  ;
 58:   ;
 59:L P[42] 40cm/min CNT100  ;
 60:L P[43] 40cm/min CNT100  ;
 61:   ;
 62:L P[44] 40cm/min CNT100  ;
 63:L P[45] 40cm/min CNT100  ;
 64:   ;
 65:L P[46] 40cm/min CNT100  ;
 66:L P[47] 40cm/min CNT100  ;
 67:   ;
 68:L P[48] 40cm/min CNT100  ;
 69:L P[49] 40cm/min CNT100  ;
 70:   ;
 71:L P[50] 40cm/min CNT100  ;
 72:L P[51] 40cm/min CNT100  ;
 73:   ;
 74:L P[52] 40cm/min CNT100  ;
 75:L P[53] 40cm/min CNT100  ;
 76:   ;
 77:L P[54] 40cm/min CNT100  ;
 78:L P[55] 40cm/min CNT100  ;
 79:   ;
 80:L P[56] 40cm/min CNT100  ;
 81:L P[57] 40cm/min CNT100  ;
 82:   ;
 83:L P[58] 40cm/min CNT100  ;
 84:L P[59] 40cm/min CNT100  ;
 85:   ;
 86:L P[60] 40cm/min CNT100  ;
 87:L P[61] 40cm/min CNT100  ;
 88:   ;
 89:L P[62] 40cm/min CNT100  ;
 90:L P[63] 40cm/min CNT100  ;
 91:   ;
 92:L P[64] 40cm/min CNT100  ;
 93:L P[65] 40cm/min CNT100  ;
 94:   ;
 95:L P[66] 40cm/min CNT100  ;
 96:L P[67] 40cm/min CNT100  ;
 97:   ;
 98:L P[68] 40cm/min CNT100  ;
 99:L P[69] 40cm/min CNT100  ;
 100:   ;
 101:L P[70] 40cm/min CNT100  ;
 102:L P[71] 40cm/min CNT100  ;
 103:   ;
 104:L P[72] 40cm/min CNT100  ;
 105:L P[73] 40cm/min CNT100  ;
 106:   ;
 107:L P[74] 40cm/min CNT100  ;
 108:L P[75] 40cm/min CNT100  ;
 109:   ;
 110:L P[76] 40cm/min CNT100  ;
 111:L P[77] 40cm/min CNT100  ;
 112:   ;
 113:L P[78] 40cm/min CNT100  ;
 114:L P[79] 40cm/min CNT100  ;
 115:   ;
 116:L P[80] 40cm/min CNT100  ;
 117:L P[81] 40cm/min CNT100  ;
 118:   ;
 119:L P[82] 40cm/min CNT100  ;
 120:L P[83] 40cm/min CNT100  ;
 121:   ;
 122:L P[84] 40cm/min CNT100  ;
 123:L P[85] 40cm/min CNT100  ;
 124:   ;
 125:L P[86] 40cm/min CNT100  ;
 126:L P[87] 40cm/min FINE  ;
 127:  CALL SUB_END ;
 128:   ;
 129:L P[88] 100mm/sec FINE  ;
 130:   ;
 131:L P[90] 100mm/sec FINE  ;
 132:L P[89] 40cm/min FINE  ;
 133:  CALL SUB_START ;
 134:   ;
 135:L P[91] 40cm/min CNT100  ;
 136:   ;
 137:L P[92] 40cm/min CNT100  ;
 138:L P[93] 40cm/min CNT100  ;
 139:   ;
 140:L P[94] 40cm/min CNT100  ;
 141:L P[95] 40cm/min CNT100  ;
 142:   ;
 143:L P[96] 40cm/min CNT100  ;
 144:L P[97] 40cm/min FINE  ;
 145:  CALL SUB_END ;
 146:   ;
 147:L P[98] 100mm/sec FINE  ;
 148:   ;
 149:   ;
 150:J P[99] 100% FINE  ;
 151:L P[100] 40cm/min FINE  ;
 152:  CALL SUB_START ;
 153:   ;
 154:L P[101] 40cm/min CNT100  ;
 155:L P[102] 40cm/min CNT100  ;
 156:L P[103] 40cm/min CNT100  ;
 157:L P[104] 40cm/min CNT100  ;
 158:L P[105] 40cm/min CNT100  ;
 159:L P[106] 40cm/min CNT100  ;
 160:L P[107] 40cm/min CNT100  ;
 161:L P[108] 40cm/min CNT100  ;
 162:L P[109] 40cm/min CNT100  ;
 163:L P[110] 40cm/min CNT100  ;
 164:L P[111] 40cm/min CNT100  ;
 165:L P[112] 40cm/min CNT50  ;
 166:L P[113] 40cm/min CNT100  ;
 167:L P[114] 40cm/min CNT100  ;
 168:L P[115] 40cm/min CNT100  ;
 169:L P[116] 40cm/min CNT100  ;
 170:L P[117] 40cm/min CNT100  ;
 171:L P[118] 40cm/min CNT50  ;
 172:L P[119] 40cm/min CNT100  ;
 173:L P[120] 40cm/min CNT100  ;
 174:L P[121] 40cm/min CNT100  ;
 175:L P[122] 40cm/min CNT100  ;
 176:L P[123] 40cm/min CNT100  ;
 177:L P[124] 40cm/min FINE  ;
 178:  CALL SUB_END ;
 179:   ;
 180:L P[125] 100mm/sec FINE  ;
 181:   ;
 182:L P[126] 40cm/min FINE  ;
 183:  CALL SUB_START ;
 184:   ;
 185:L P[127] 40cm/min CNT100  ;
 186:   ;
 187:L P[128] 40cm/min CNT100  ;
 188:L P[129] 40cm/min CNT100  ;
 189:   ;
 190:L P[130] 40cm/min CNT100  ;
 191:L P[131] 40cm/min CNT100  ;
 192:   ;
 193:L P[132] 40cm/min CNT100  ;
 194:L P[133] 40cm/min FINE  ;
 195:  CALL SUB_END ;
 196:   ;
 197:L P[134] 40cm/min FINE  ;
 198:   ;
 199:L P[135] 100mm/sec FINE  ;
 200:L P[136] 40cm/min FINE  ;
 201:  CALL SUB_START ;
 202:   ;
 203:L P[137] 40cm/min CNT100  ;
 204:   ;
 205:L P[138] 40cm/min CNT100  ;
 206:L P[139] 40cm/min CNT100  ;
 207:   ;
 208:L P[140] 40cm/min CNT100  ;
 209:L P[141] 40cm/min CNT100  ;
 210:   ;
 211:L P[142] 40cm/min CNT100  ;
 212:L P[143] 40cm/min CNT100  ;
 213:   ;
 214:L P[144] 40cm/min CNT100  ;
 215:L P[145] 40cm/min CNT100  ;
 216:   ;
 217:L P[146] 40cm/min CNT100  ;
 218:L P[147] 40cm/min CNT100  ;
 219:   ;
 220:L P[148] 40cm/min CNT100  ;
 221:L P[149] 40cm/min CNT100  ;
 222:   ;
 223:L P[150] 40cm/min CNT100  ;
 224:L P[151] 40cm/min CNT100  ;
 225:   ;
 226:L P[152] 40cm/min CNT100  ;
 227:L P[153] 40cm/min CNT100  ;
 228:   ;
 229:L P[154] 40cm/min CNT100  ;
 230:L P[155] 40cm/min CNT100  ;
 231:   ;
 232:L P[156] 40cm/min CNT100  ;
 233:L P[157] 40cm/min CNT100  ;
 234:   ;
 235:L P[158] 40cm/min CNT100  ;
 236:L P[159] 40cm/min CNT100  ;
 237:   ;
 238:L P[160] 40cm/min CNT100  ;
 239:L P[161] 40cm/min CNT100  ;
 240:   ;
 241:L P[162] 40cm/min CNT100  ;
 242:L P[163] 40cm/min CNT100  ;
 243:   ;
 244:L P[164] 40cm/min CNT100  ;
 245:L P[165] 40cm/min CNT100  ;
 246:   ;
 247:L P[166] 40cm/min CNT100  ;
 248:L P[167] 40cm/min CNT100  ;
 249:   ;
 250:L P[168] 40cm/min CNT100  ;
 251:L P[169] 40cm/min CNT100  ;
 252:   ;
 253:L P[170] 40cm/min CNT100  ;
 254:L P[171] 40cm/min CNT100  ;
 255:   ;
 256:L P[172] 40cm/min CNT100  ;
 257:L P[173] 40cm/min CNT100  ;
 258:   ;
 259:L P[174] 40cm/min CNT100  ;
 260:L P[175] 40cm/min CNT100  ;
 261:   ;
 262:L P[176] 40cm/min CNT100  ;
 263:L P[177] 40cm/min CNT100  ;
 264:   ;
 265:L P[178] 40cm/min CNT100  ;
 266:L P[179] 40cm/min CNT100  ;
 267:   ;
 268:L P[180] 40cm/min CNT100  ;
 269:L P[181] 40cm/min CNT100  ;
 270:   ;
 271:L P[182] 40cm/min CNT100  ;
 272:L P[183] 40cm/min CNT100  ;
 273:   ;
 274:L P[184] 40cm/min CNT100  ;
 275:L P[185] 40cm/min FINE  ;
 276:  CALL SUB_END ;
 277:   ;
 278:L P[186] 100mm/sec FINE  ;
 279:   ;
 280:L P[187] 100mm/sec FINE  ;
 281:L P[188] 40cm/min FINE  ;
 282:  CALL SUB_START ;
 283:   ;
 284:L P[189] 40cm/min CNT100  ;
 285:   ;
 286:L P[190] 40cm/min CNT100  ;
 287:L P[191] 40cm/min CNT100  ;
 288:   ;
 289:L P[192] 40cm/min CNT100  ;
 290:L P[193] 40cm/min CNT100  ;
 291:   ;
 292:L P[194] 40cm/min CNT100  ;
 293:L P[195] 40cm/min FINE  ;
 294:  CALL SUB_END ;
 295:   ;
 296:L P[196] 100mm/sec FINE  ;
 297:   ;
 298:   ;
 299:   ;
 300:   ;
 301:   ;
 302:   ;
 303:   ;
 304:   ;
 304:J P[221] 100% FINE  ;
 305:L P[196] 40cm/min FINE  ;
 306:  CALL SUB_START ;
 307:   ;
 308:L P[197] 40cm/min CNT100  ;
 309:L P[198] 40cm/min CNT100  ;
 310:L P[199] 40cm/min CNT100  ;
 311:L P[200] 40cm/min CNT100  ;
 312:L P[201] 40cm/min CNT100  ;
 313:L P[202] 40cm/min CNT100  ;
 314:L P[203] 40cm/min CNT100  ;
 315:L P[204] 40cm/min CNT100  ;
 316:L P[205] 40cm/min CNT100  ;
 317:L P[206] 40cm/min CNT100  ;
 318:L P[207] 40cm/min CNT100  ;
 319:L P[208] 40cm/min CNT50  ;
 320:L P[209] 40cm/min CNT100  ;
 321:L P[210] 40cm/min CNT100  ;
 322:L P[211] 40cm/min CNT100  ;
 323:L P[212] 40cm/min CNT100  ;
 324:L P[213] 40cm/min CNT100  ;
 325:L P[214] 40cm/min CNT50  ;
 326:L P[215] 40cm/min CNT100  ;
 327:L P[216] 40cm/min CNT100  ;
 328:L P[217] 40cm/min CNT100  ;
 329:L P[218] 40cm/min CNT100  ;
 330:L P[219] 40cm/min CNT100  ;
 331:L P[220] 40cm/min FINE  ;
 332:  CALL SUB_END ;
 333:   ;
 334:L P[226] 100mm/sec FINE  ;
 335:   ;
 336:L P[222] 40cm/min FINE  ;
 337:  CALL SUB_START ;
 338:   ;
 339:L P[223] 40cm/min CNT100  ;
 340:   ;
 341:L P[224] 40cm/min CNT100  ;
 342:L P[225] 40cm/min CNT100  ;
 343:   ;
 344:L P[227] 40cm/min CNT100  ;
 345:L P[228] 40cm/min CNT100  ;
 346:   ;
 347:L P[229] 40cm/min CNT100  ;
 348:L P[230] 40cm/min FINE  ;
 349:  CALL SUB_END ;
 350:   ;
 351:L P[231] 40cm/min FINE  ;
 352:   ;
 353:L P[232] 100mm/sec FINE  ;
 354:L P[233] 40cm/min FINE  ;
 355:  CALL SUB_START ;
 356:   ;
 357:L P[234] 40cm/min CNT100  ;
 358:   ;
 359:L P[235] 40cm/min CNT100  ;
 360:L P[236] 40cm/min CNT100  ;
 361:   ;
 362:L P[237] 40cm/min CNT100  ;
 363:L P[238] 40cm/min CNT100  ;
 364:   ;
 365:L P[239] 40cm/min CNT100  ;
 366:L P[240] 40cm/min CNT100  ;
 367:   ;
 368:L P[241] 40cm/min CNT100  ;
 369:L P[242] 40cm/min CNT100  ;
 370:   ;
 371:L P[243] 40cm/min CNT100  ;
 372:L P[244] 40cm/min CNT100  ;
 373:   ;
 374:L P[245] 40cm/min CNT100  ;
 375:L P[246] 40cm/min CNT100  ;
 376:   ;
 377:L P[247] 40cm/min CNT100  ;
 378:L P[248] 40cm/min CNT100  ;
 379:   ;
 380:L P[249] 40cm/min CNT100  ;
 381:L P[250] 40cm/min CNT100  ;
 382:   ;
 383:L P[251] 40cm/min CNT100  ;
 384:L P[252] 40cm/min CNT100  ;
 385:   ;
 386:L P[253] 40cm/min CNT100  ;
 387:L P[254] 40cm/min CNT100  ;
 388:   ;
 389:L P[255] 40cm/min CNT100  ;
 390:L P[256] 40cm/min CNT100  ;
 391:   ;
 392:L P[257] 40cm/min CNT100  ;
 393:L P[258] 40cm/min CNT100  ;
 394:   ;
 395:L P[259] 40cm/min CNT100  ;
 396:L P[260] 40cm/min CNT100  ;
 397:   ;
 398:L P[261] 40cm/min CNT100  ;
 399:L P[262] 40cm/min CNT100  ;
 400:   ;
 401:L P[263] 40cm/min CNT100  ;
 402:L P[264] 40cm/min CNT100  ;
 403:   ;
 404:L P[265] 40cm/min CNT100  ;
 405:L P[266] 40cm/min CNT100  ;
 406:   ;
 407:L P[267] 40cm/min CNT100  ;
 408:L P[268] 40cm/min CNT100  ;
 409:   ;
 410:L P[269] 40cm/min CNT100  ;
 411:L P[270] 40cm/min CNT100  ;
 412:   ;
 413:L P[271] 40cm/min CNT100  ;
 414:L P[272] 40cm/min CNT100  ;
 415:   ;
 416:L P[273] 40cm/min CNT100  ;
 417:L P[274] 40cm/min CNT100  ;
 418:   ;
 419:L P[275] 40cm/min CNT100  ;
 420:L P[276] 40cm/min CNT100  ;
 421:   ;
 422:L P[277] 40cm/min CNT100  ;
 423:L P[278] 40cm/min CNT100  ;
 424:   ;
 425:L P[279] 40cm/min CNT100  ;
 426:L P[280] 40cm/min CNT100  ;
 427:   ;
 428:L P[281] 40cm/min CNT100  ;
 429:L P[282] 40cm/min FINE  ;
 430:  CALL SUB_END ;
 431:   ;
 432:L P[283] 100mm/sec FINE  ;
 433:   ;
 434:L P[285] 100mm/sec FINE  ;
 435:L P[284] 40cm/min FINE  ;
 436:  CALL SUB_START ;
 437:   ;
 438:L P[286] 40cm/min CNT100  ;
 439:   ;
 440:L P[287] 40cm/min CNT100  ;
 441:L P[288] 40cm/min CNT100  ;
 442:   ;
 443:L P[289] 40cm/min CNT100  ;
 444:L P[290] 40cm/min CNT100  ;
 445:   ;
 446:L P[291] 40cm/min CNT100  ;
 447:L P[292] 40cm/min FINE  ;
 448:  CALL SUB_END ;
 449:   ;
 450:L P[293] 100mm/sec FINE  ;
 451:   ;
 452:   ;
 453:J P[294] 100% FINE  ;
 454:L P[295] 40cm/min FINE  ;
 455:  CALL SUB_START ;
 456:   ;
 457:L P[296] 40cm/min CNT100  ;
 458:L P[297] 40cm/min CNT100  ;
 459:L P[298] 40cm/min CNT100  ;
 460:L P[299] 40cm/min CNT100  ;
 461:L P[300] 40cm/min CNT100  ;
 462:L P[301] 40cm/min CNT100  ;
 463:L P[302] 40cm/min CNT100  ;
 464:L P[303] 40cm/min CNT100  ;
 465:L P[304] 40cm/min CNT100  ;
 466:L P[305] 40cm/min CNT100  ;
 467:L P[306] 40cm/min CNT100  ;
 468:L P[307] 40cm/min CNT50  ;
 469:L P[308] 40cm/min CNT100  ;
 470:L P[309] 40cm/min CNT100  ;
 471:L P[310] 40cm/min CNT100  ;
 472:L P[311] 40cm/min CNT100  ;
 473:L P[312] 40cm/min CNT100  ;
 474:L P[313] 40cm/min CNT50  ;
 475:L P[314] 40cm/min CNT100  ;
 476:L P[315] 40cm/min CNT100  ;
 477:L P[316] 40cm/min CNT100  ;
 478:L P[317] 40cm/min CNT100  ;
 479:L P[318] 40cm/min CNT100  ;
 480:L P[319] 40cm/min FINE  ;
 481:  CALL SUB_END ;
 482:   ;
 483:L P[320] 100mm/sec FINE  ;
 484:   ;
 485:L P[321] 40cm/min FINE  ;
 486:  CALL SUB_START ;
 487:   ;
 488:L P[322] 40cm/min CNT100  ;
 489:   ;
 490:L P[323] 40cm/min CNT100  ;
 491:L P[324] 40cm/min CNT100  ;
 492:   ;
 493:L P[325] 40cm/min CNT100  ;
 494:L P[326] 40cm/min CNT100  ;
 495:   ;
 496:L P[327] 40cm/min CNT100  ;
 497:L P[328] 40cm/min FINE  ;
 498:  CALL SUB_END ;
 499:   ;
 500:L P[329] 40cm/min FINE  ;
 501:   ;
 502:L P[330] 100mm/sec FINE  ;
 503:L P[331] 40cm/min FINE  ;
 504:  CALL SUB_START ;
 505:   ;
 506:L P[332] 40cm/min CNT100  ;
 507:   ;
 508:L P[333] 40cm/min CNT100  ;
 509:L P[334] 40cm/min CNT100  ;
 510:   ;
 511:L P[335] 40cm/min CNT100  ;
 512:L P[336] 40cm/min CNT100  ;
 513:   ;
 514:L P[337] 40cm/min CNT100  ;
 515:L P[338] 40cm/min CNT100  ;
 516:   ;
 517:L P[339] 40cm/min CNT100  ;
 518:L P[340] 40cm/min CNT100  ;
 519:   ;
 520:L P[341] 40cm/min CNT100  ;
 521:L P[342] 40cm/min CNT100  ;
 522:   ;
 523:L P[343] 40cm/min CNT100  ;
 524:L P[344] 40cm/min CNT100  ;
 525:   ;
 526:L P[345] 40cm/min CNT100  ;
 527:L P[346] 40cm/min CNT100  ;
 528:   ;
 529:L P[347] 40cm/min CNT100  ;
 530:L P[348] 40cm/min CNT100  ;
 531:   ;
 532:L P[349] 40cm/min CNT100  ;
 533:L P[350] 40cm/min CNT100  ;
 534:   ;
 535:L P[351] 40cm/min CNT100  ;
 536:L P[352] 40cm/min CNT100  ;
 537:   ;
 538:L P[353] 40cm/min CNT100  ;
 539:L P[354] 40cm/min CNT100  ;
 540:   ;
 541:L P[355] 40cm/min CNT100  ;
 542:L P[356] 40cm/min CNT100  ;
 543:   ;
 544:L P[357] 40cm/min CNT100  ;
 545:L P[358] 40cm/min CNT100  ;
 546:   ;
 547:L P[359] 40cm/min CNT100  ;
 548:L P[360] 40cm/min CNT100  ;
 549:   ;
 550:L P[361] 40cm/min CNT100  ;
 551:L P[362] 40cm/min CNT100  ;
 552:   ;
 553:L P[363] 40cm/min CNT100  ;
 554:L P[364] 40cm/min CNT100  ;
 555:   ;
 556:L P[365] 40cm/min CNT100  ;
 557:L P[366] 40cm/min CNT100  ;
 558:   ;
 559:L P[367] 40cm/min CNT100  ;
 560:L P[368] 40cm/min CNT100  ;
 561:   ;
 562:L P[369] 40cm/min CNT100  ;
 563:L P[370] 40cm/min CNT100  ;
 564:   ;
 565:L P[371] 40cm/min CNT100  ;
 566:L P[372] 40cm/min CNT100  ;
 567:   ;
 568:L P[373] 40cm/min CNT100  ;
 569:L P[374] 40cm/min CNT100  ;
 570:   ;
 571:L P[375] 40cm/min CNT100  ;
 572:L P[376] 40cm/min CNT100  ;
 573:   ;
 574:L P[377] 40cm/min CNT100  ;
 575:L P[378] 40cm/min CNT100  ;
 576:   ;
 577:L P[379] 40cm/min CNT100  ;
 578:L P[380] 40cm/min FINE  ;
 579:  CALL SUB_END ;
 580:   ;
 581:L P[381] 100mm/sec FINE  ;
 582:   ;
 583:L P[382] 100mm/sec FINE  ;
 584:L P[383] 40cm/min FINE  ;
 585:  CALL SUB_START ;
 586:   ;
 587:L P[384] 40cm/min CNT100  ;
 588:   ;
 589:L P[385] 40cm/min CNT100  ;
 590:L P[386] 40cm/min CNT100  ;
 591:   ;
 592:L P[387] 40cm/min CNT100  ;
 593:L P[388] 40cm/min CNT100  ;
 594:   ;
 595:L P[389] 40cm/min CNT100  ;
 596:L P[390] 40cm/min FINE  ;
 597:  CALL SUB_END ;
 598:   ;
 599:L P[391] 100mm/sec FINE  ;
 600:   ;
 601:   ;
 602:   ;
 603:   ;
 604:   ;
 605:   ;
 606:   ;
 607:   ;
 607:J P[416] 100% FINE  ;
 608:L P[391] 40cm/min FINE  ;
 609:  CALL SUB_START ;
 610:   ;
 611:L P[392] 40cm/min CNT100  ;
 612:L P[393] 40cm/min CNT100  ;
 613:L P[394] 40cm/min CNT100  ;
 614:L P[395] 40cm/min CNT100  ;
 615:L P[396] 40cm/min CNT100  ;
 616:L P[397] 40cm/min CNT100  ;
 617:L P[398] 40cm/min CNT100  ;
 618:L P[399] 40cm/min CNT100  ;
 619:L P[400] 40cm/min CNT100  ;
 620:L P[401] 40cm/min CNT100  ;
 621:L P[402] 40cm/min CNT100  ;
 622:L P[403] 40cm/min CNT50  ;
 623:L P[404] 40cm/min CNT100  ;
 624:L P[405] 40cm/min CNT100  ;
 625:L P[406] 40cm/min CNT100  ;
 626:L P[407] 40cm/min CNT100  ;
 627:L P[408] 40cm/min CNT100  ;
 628:L P[409] 40cm/min CNT50  ;
 629:L P[410] 40cm/min CNT100  ;
 630:L P[411] 40cm/min CNT100  ;
 631:L P[412] 40cm/min CNT100  ;
 632:L P[413] 40cm/min CNT100  ;
 633:L P[414] 40cm/min CNT100  ;
 634:L P[415] 40cm/min FINE  ;
 635:  CALL SUB_END ;
 636:   ;
 637:L P[421] 100mm/sec FINE  ;
 638:   ;
 639:L P[417] 40cm/min FINE  ;
 640:  CALL SUB_START ;
 641:   ;
 642:L P[418] 40cm/min CNT100  ;
 643:   ;
 644:L P[419] 40cm/min CNT100  ;
 645:L P[420] 40cm/min CNT100  ;
 646:   ;
 647:L P[422] 40cm/min CNT100  ;
 648:L P[423] 40cm/min CNT100  ;
 649:   ;
 650:L P[424] 40cm/min CNT100  ;
 651:L P[425] 40cm/min FINE  ;
 652:  CALL SUB_END ;
 653:   ;
 654:L P[426] 40cm/min FINE  ;
 655:   ;
 656:L P[427] 100mm/sec FINE  ;
 657:L P[428] 40cm/min FINE  ;
 658:  CALL SUB_START ;
 659:   ;
 660:L P[429] 40cm/min CNT100  ;
 661:   ;
 662:L P[430] 40cm/min CNT100  ;
 663:L P[431] 40cm/min CNT100  ;
 664:   ;
 665:L P[432] 40cm/min CNT100  ;
 666:L P[433] 40cm/min CNT100  ;
 667:   ;
 668:L P[434] 40cm/min CNT100  ;
 669:L P[435] 40cm/min CNT100  ;
 670:   ;
 671:L P[436] 40cm/min CNT100  ;
 672:L P[437] 40cm/min CNT100  ;
 673:   ;
 674:L P[438] 40cm/min CNT100  ;
 675:L P[439] 40cm/min CNT100  ;
 676:   ;
 677:L P[440] 40cm/min CNT100  ;
 678:L P[441] 40cm/min CNT100  ;
 679:   ;
 680:L P[442] 40cm/min CNT100  ;
 681:L P[443] 40cm/min CNT100  ;
 682:   ;
 683:L P[444] 40cm/min CNT100  ;
 684:L P[445] 40cm/min CNT100  ;
 685:   ;
 686:L P[446] 40cm/min CNT100  ;
 687:L P[447] 40cm/min CNT100  ;
 688:   ;
 689:L P[448] 40cm/min CNT100  ;
 690:L P[449] 40cm/min CNT100  ;
 691:   ;
 692:L P[450] 40cm/min CNT100  ;
 693:L P[451] 40cm/min CNT100  ;
 694:   ;
 695:L P[452] 40cm/min CNT100  ;
 696:L P[453] 40cm/min CNT100  ;
 697:   ;
 698:L P[454] 40cm/min CNT100  ;
 699:L P[455] 40cm/min CNT100  ;
 700:   ;
 701:L P[456] 40cm/min CNT100  ;
 702:L P[457] 40cm/min CNT100  ;
 703:   ;
 704:L P[458] 40cm/min CNT100  ;
 705:L P[459] 40cm/min CNT100  ;
 706:   ;
 707:L P[460] 40cm/min CNT100  ;
 708:L P[461] 40cm/min CNT100  ;
 709:   ;
 710:L P[462] 40cm/min CNT100  ;
 711:L P[463] 40cm/min CNT100  ;
 712:   ;
 713:L P[464] 40cm/min CNT100  ;
 714:L P[465] 40cm/min CNT100  ;
 715:   ;
 716:L P[466] 40cm/min CNT100  ;
 717:L P[467] 40cm/min CNT100  ;
 718:   ;
 719:L P[468] 40cm/min CNT100  ;
 720:L P[469] 40cm/min CNT100  ;
 721:   ;
 722:L P[470] 40cm/min CNT100  ;
 723:L P[471] 40cm/min CNT100  ;
 724:   ;
 725:L P[472] 40cm/min CNT100  ;
 726:L P[473] 40cm/min CNT100  ;
 727:   ;
 728:L P[474] 40cm/min CNT100  ;
 729:L P[475] 40cm/min CNT100  ;
 730:   ;
 731:L P[476] 40cm/min CNT100  ;
 732:L P[477] 40cm/min FINE  ;
 733:  CALL SUB_END ;
 734:   ;
 735:L P[478] 100mm/sec FINE  ;
 736:   ;
 737:L P[480] 100mm/sec FINE  ;
 738:L P[479] 40cm/min FINE  ;
 739:  CALL SUB_START ;
 740:   ;
 741:L P[481] 40cm/min CNT100  ;
 742:   ;
 743:L P[482] 40cm/min CNT100  ;
 744:L P[483] 40cm/min CNT100  ;
 745:   ;
 746:L P[484] 40cm/min CNT100  ;
 747:L P[485] 40cm/min CNT100  ;
 748:   ;
 749:L P[486] 40cm/min CNT100  ;
 750:L P[487] 40cm/min FINE  ;
 751:  CALL SUB_END ;
 752:   ;
 753:L P[488] 100mm/sec FINE  ;
 754:   ;
 755:   ;
 756:J P[489] 100% FINE  ;
 757:L P[490] 40cm/min FINE  ;
 758:  CALL SUB_START ;
 759:   ;
 760:L P[491] 40cm/min CNT100  ;
 761:L P[492] 40cm/min CNT100  ;
 762:L P[493] 40cm/min CNT100  ;
 763:L P[494] 40cm/min CNT100  ;
 764:L P[495] 40cm/min CNT100  ;
 765:L P[496] 40cm/min CNT100  ;
 766:L P[497] 40cm/min CNT100  ;
 767:L P[498] 40cm/min CNT100  ;
 768:L P[499] 40cm/min CNT100  ;
 769:L P[500] 40cm/min CNT100  ;
 770:L P[501] 40cm/min CNT100  ;
 771:L P[502] 40cm/min CNT50  ;
 772:L P[503] 40cm/min CNT100  ;
 773:L P[504] 40cm/min CNT100  ;
 774:L P[505] 40cm/min CNT100  ;
 775:L P[506] 40cm/min CNT100  ;
 776:L P[507] 40cm/min CNT100  ;
 777:L P[508] 40cm/min CNT50  ;
 778:L P[509] 40cm/min CNT100  ;
 779:L P[510] 40cm/min CNT100  ;
 780:L P[511] 40cm/min CNT100  ;
 781:L P[512] 40cm/min CNT100  ;
 782:L P[513] 40cm/min CNT100  ;
 783:L P[514] 40cm/min FINE  ;
 784:  CALL SUB_END ;
 785:   ;
 786:L P[515] 100mm/sec FINE  ;
 787:   ;
 788:L P[516] 40cm/min FINE  ;
 789:  CALL SUB_START ;
 790:   ;
 791:L P[517] 40cm/min CNT100  ;
 792:   ;
 793:L P[518] 40cm/min CNT100  ;
 794:L P[519] 40cm/min CNT100  ;
 795:   ;
 796:L P[520] 40cm/min CNT100  ;
 797:L P[521] 40cm/min CNT100  ;
 798:   ;
 799:L P[522] 40cm/min CNT100  ;
 800:L P[523] 40cm/min FINE  ;
 801:  CALL SUB_END ;
 802:   ;
 803:L P[524] 40cm/min FINE  ;
 804:   ;
 805:L P[525] 100mm/sec FINE  ;
 806:L P[526] 40cm/min FINE  ;
 807:  CALL SUB_START ;
 808:   ;
 809:L P[527] 40cm/min CNT100  ;
 810:   ;
 811:L P[528] 40cm/min CNT100  ;
 812:L P[529] 40cm/min CNT100  ;
 813:   ;
 814:L P[530] 40cm/min CNT100  ;
 815:L P[531] 40cm/min CNT100  ;
 816:   ;
 817:L P[532] 40cm/min CNT100  ;
 818:L P[533] 40cm/min CNT100  ;
 819:   ;
 820:L P[534] 40cm/min CNT100  ;
 821:L P[535] 40cm/min CNT100  ;
 822:   ;
 823:L P[536] 40cm/min CNT100  ;
 824:L P[537] 40cm/min CNT100  ;
 825:   ;
 826:L P[538] 40cm/min CNT100  ;
 827:L P[539] 40cm/min CNT100  ;
 828:   ;
 829:L P[540] 40cm/min CNT100  ;
 830:L P[541] 40cm/min CNT100  ;
 831:   ;
 832:L P[542] 40cm/min CNT100  ;
 833:L P[543] 40cm/min CNT100  ;
 834:   ;
 835:L P[544] 40cm/min CNT100  ;
 836:L P[545] 40cm/min CNT100  ;
 837:   ;
 838:L P[546] 40cm/min CNT100  ;
 839:L P[547] 40cm/min CNT100  ;
 840:   ;
 841:L P[548] 40cm/min CNT100  ;
 842:L P[549] 40cm/min CNT100  ;
 843:   ;
 844:L P[550] 40cm/min CNT100  ;
 845:L P[551] 40cm/min CNT100  ;
 846:   ;
 847:L P[552] 40cm/min CNT100  ;
 848:L P[553] 40cm/min CNT100  ;
 849:   ;
 850:L P[554] 40cm/min CNT100  ;
 851:L P[555] 40cm/min CNT100  ;
 852:   ;
 853:L P[556] 40cm/min CNT100  ;
 854:L P[557] 40cm/min CNT100  ;
 855:   ;
 856:L P[558] 40cm/min CNT100  ;
 857:L P[559] 40cm/min CNT100  ;
 858:   ;
 859:L P[560] 40cm/min CNT100  ;
 860:L P[561] 40cm/min CNT100  ;
 861:   ;
 862:L P[562] 40cm/min CNT100  ;
 863:L P[563] 40cm/min CNT100  ;
 864:   ;
 865:L P[564] 40cm/min CNT100  ;
 866:L P[565] 40cm/min CNT100  ;
 867:   ;
 868:L P[566] 40cm/min CNT100  ;
 869:L P[567] 40cm/min CNT100  ;
 870:   ;
 871:L P[568] 40cm/min CNT100  ;
 872:L P[569] 40cm/min CNT100  ;
 873:   ;
 874:L P[570] 40cm/min CNT100  ;
 875:L P[571] 40cm/min CNT100  ;
 876:   ;
 877:L P[572] 40cm/min CNT100  ;
 878:L P[573] 40cm/min CNT100  ;
 879:   ;
 880:L P[574] 40cm/min CNT100  ;
 881:L P[575] 40cm/min FINE  ;
 882:  CALL SUB_END ;
 883:   ;
 884:L P[576] 100mm/sec FINE  ;
 885:   ;
 886:L P[577] 100mm/sec FINE  ;
 887:L P[578] 40cm/min FINE  ;
 888:  CALL SUB_START ;
 889:   ;
 890:L P[579] 40cm/min CNT100  ;
 891:   ;
 892:L P[580] 40cm/min CNT100  ;
 893:L P[581] 40cm/min CNT100  ;
 894:   ;
 895:L P[582] 40cm/min CNT100  ;
 896:L P[583] 40cm/min CNT100  ;
 897:   ;
 898:L P[584] 40cm/min CNT100  ;
 899:L P[585] 40cm/min FINE  ;
 900:  CALL SUB_END ;
 901:   ;
 902:L P[586] 100mm/sec FINE  ;
 903:   ;
 904:   ;
 905:   ;
 906:   ;
 907:   ;
 908:   ;
 909:   ;
 910:   ;
 910:J P[611] 100% FINE  ;
 911:L P[586] 40cm/min FINE  ;
 912:  CALL SUB_START ;
 913:   ;
 914:L P[587] 40cm/min CNT100  ;
 915:L P[588] 40cm/min CNT100  ;
 916:L P[589] 40cm/min CNT100  ;
 917:L P[590] 40cm/min CNT100  ;
 918:L P[591] 40cm/min CNT100  ;
 919:L P[592] 40cm/min CNT100  ;
 920:L P[593] 40cm/min CNT100  ;
 921:L P[594] 40cm/min CNT100  ;
 922:L P[595] 40cm/min CNT100  ;
 923:L P[596] 40cm/min CNT100  ;
 924:L P[597] 40cm/min CNT100  ;
 925:L P[598] 40cm/min CNT50  ;
 926:L P[599] 40cm/min CNT100  ;
 927:L P[600] 40cm/min CNT100  ;
 928:L P[601] 40cm/min CNT100  ;
 929:L P[602] 40cm/min CNT100  ;
 930:L P[603] 40cm/min CNT100  ;
 931:L P[604] 40cm/min CNT50  ;
 932:L P[605] 40cm/min CNT100  ;
 933:L P[606] 40cm/min CNT100  ;
 934:L P[607] 40cm/min CNT100  ;
 935:L P[608] 40cm/min CNT100  ;
 936:L P[609] 40cm/min CNT100  ;
 937:L P[610] 40cm/min FINE  ;
 938:  CALL SUB_END ;
 939:   ;
 940:L P[616] 100mm/sec FINE  ;
 941:   ;
 942:L P[612] 40cm/min FINE  ;
 943:  CALL SUB_START ;
 944:   ;
 945:L P[613] 40cm/min CNT100  ;
 946:   ;
 947:L P[614] 40cm/min CNT100  ;
 948:L P[615] 40cm/min CNT100  ;
 949:   ;
 950:L P[617] 40cm/min CNT100  ;
 951:L P[618] 40cm/min CNT100  ;
 952:   ;
 953:L P[619] 40cm/min CNT100  ;
 954:L P[620] 40cm/min FINE  ;
 955:  CALL SUB_END ;
 956:   ;
 957:L P[621] 40cm/min FINE  ;
 958:   ;
 959:L P[622] 100mm/sec FINE  ;
 960:L P[623] 40cm/min FINE  ;
 961:  CALL SUB_START ;
 962:   ;
 963:L P[624] 40cm/min CNT100  ;
 964:   ;
 965:L P[625] 40cm/min CNT100  ;
 966:L P[626] 40cm/min CNT100  ;
 967:   ;
 968:L P[627] 40cm/min CNT100  ;
 969:L P[628] 40cm/min CNT100  ;
 970:   ;
 971:L P[629] 40cm/min CNT100  ;
 972:L P[630] 40cm/min CNT100  ;
 973:   ;
 974:L P[631] 40cm/min CNT100  ;
 975:L P[632] 40cm/min CNT100  ;
 976:   ;
 977:L P[633] 40cm/min CNT100  ;
 978:L P[634] 40cm/min CNT100  ;
 979:   ;
 980:L P[635] 40cm/min CNT100  ;
 981:L P[636] 40cm/min CNT100  ;
 982:   ;
 983:L P[637] 40cm/min CNT100  ;
 984:L P[638] 40cm/min CNT100  ;
 985:   ;
 986:L P[639] 40cm/min CNT100  ;
 987:L P[640] 40cm/min CNT100  ;
 988:   ;
 989:L P[641] 40cm/min CNT100  ;
 990:L P[642] 40cm/min CNT100  ;
 991:   ;
 992:L P[643] 40cm/min CNT100  ;
 993:L P[644] 40cm/min CNT100  ;
 994:   ;
 995:L P[645] 40cm/min CNT100  ;
 996:L P[646] 40cm/min CNT100  ;
 997:   ;
 998:L P[647] 40cm/min CNT100  ;
 999:L P[648] 40cm/min CNT100  ;
 1000:   ;
 1001:L P[649] 40cm/min CNT100  ;
 1002:L P[650] 40cm/min CNT100  ;
 1003:   ;
 1004:L P[651] 40cm/min CNT100  ;
 1005:L P[652] 40cm/min CNT100  ;
 1006:   ;
 1007:L P[653] 40cm/min CNT100  ;
 1008:L P[654] 40cm/min CNT100  ;
 1009:   ;
 1010:L P[655] 40cm/min CNT100  ;
 1011:L P[656] 40cm/min CNT100  ;
 1012:   ;
 1013:L P[657] 40cm/min CNT100  ;
 1014:L P[658] 40cm/min CNT100  ;
 1015:   ;
 1016:L P[659] 40cm/min CNT100  ;
 1017:L P[660] 40cm/min CNT100  ;
 1018:   ;
 1019:L P[661] 40cm/min CNT100  ;
 1020:L P[662] 40cm/min CNT100  ;
 1021:   ;
 1022:L P[663] 40cm/min CNT100  ;
 1023:L P[664] 40cm/min CNT100  ;
 1024:   ;
 1025:L P[665] 40cm/min CNT100  ;
 1026:L P[666] 40cm/min CNT100  ;
 1027:   ;
 1028:L P[667] 40cm/min CNT100  ;
 1029:L P[668] 40cm/min CNT100  ;
 1030:   ;
 1031:L P[669] 40cm/min CNT100  ;
 1032:L P[670] 40cm/min CNT100  ;
 1033:   ;
 1034:L P[671] 40cm/min CNT100  ;
 1035:L P[672] 40cm/min FINE  ;
 1036:  CALL SUB_END ;
 1037:   ;
 1038:L P[673] 100mm/sec FINE  ;
 1039:   ;
 1040:L P[675] 100mm/sec FINE  ;
 1041:L P[674] 40cm/min FINE  ;
 1042:  CALL SUB_START ;
 1043:   ;
 1044:L P[676] 40cm/min CNT100  ;
 1045:   ;
 1046:L P[677] 40cm/min CNT100  ;
 1047:L P[678] 40cm/min CNT100  ;
 1048:   ;
 1049:L P[679] 40cm/min CNT100  ;
 1050:L P[680] 40cm/min CNT100  ;
 1051:   ;
 1052:L P[681] 40cm/min CNT100  ;
 1053:L P[682] 40cm/min FINE  ;
 1054:  CALL SUB_END ;
 1055:   ;
 1056:L P[683] 100mm/sec FINE  ;
 1057:   ;
 1058:   ;
 1059:J P[684] 100% FINE  ;
 1060:L P[685] 40cm/min FINE  ;
 1061:  CALL SUB_START ;
 1062:   ;
 1063:L P[686] 40cm/min CNT100  ;
 1064:L P[687] 40cm/min CNT100  ;
 1065:L P[688] 40cm/min CNT100  ;
 1066:L P[689] 40cm/min CNT100  ;
 1067:L P[690] 40cm/min CNT100  ;
 1068:L P[691] 40cm/min CNT100  ;
 1069:L P[692] 40cm/min CNT100  ;
 1070:L P[693] 40cm/min CNT100  ;
 1071:L P[694] 40cm/min CNT100  ;
 1072:L P[695] 40cm/min CNT100  ;
 1073:L P[696] 40cm/min CNT100  ;
 1074:L P[697] 40cm/min CNT50  ;
 1075:L P[698] 40cm/min CNT100  ;
 1076:L P[699] 40cm/min CNT100  ;
 1077:L P[700] 40cm/min CNT100  ;
 1078:L P[701] 40cm/min CNT100  ;
 1079:L P[702] 40cm/min CNT100  ;
 1080:L P[703] 40cm/min CNT50  ;
 1081:L P[704] 40cm/min CNT100  ;
 1082:L P[705] 40cm/min CNT100  ;
 1083:L P[706] 40cm/min CNT100  ;
 1084:L P[707] 40cm/min CNT100  ;
 1085:L P[708] 40cm/min CNT100  ;
 1086:L P[709] 40cm/min FINE  ;
 1087:  CALL SUB_END ;
 1088:   ;
 1089:L P[710] 100mm/sec FINE  ;
 1090:   ;
 1091:L P[711] 40cm/min FINE  ;
 1092:  CALL SUB_START ;
 1093:   ;
 1094:L P[712] 40cm/min CNT100  ;
 1095:   ;
 1096:L P[713] 40cm/min CNT100  ;
 1097:L P[714] 40cm/min CNT100  ;
 1098:   ;
 1099:L P[715] 40cm/min CNT100  ;
 1100:L P[716] 40cm/min CNT100  ;
 1101:   ;
 1102:L P[717] 40cm/min CNT100  ;
 1103:L P[718] 40cm/min FINE  ;
 1104:  CALL SUB_END ;
 1105:   ;
 1106:L P[719] 40cm/min FINE  ;
 1107:   ;
 1108:L P[720] 100mm/sec FINE  ;
 1109:L P[721] 40cm/min FINE  ;
 1110:  CALL SUB_START ;
 1111:   ;
 1112:L P[722] 40cm/min CNT100  ;
 1113:   ;
 1114:L P[723] 40cm/min CNT100  ;
 1115:L P[724] 40cm/min CNT100  ;
 1116:   ;
 1117:L P[725] 40cm/min CNT100  ;
 1118:L P[726] 40cm/min CNT100  ;
 1119:   ;
 1120:L P[727] 40cm/min CNT100  ;
 1121:L P[728] 40cm/min CNT100  ;
 1122:   ;
 1123:L P[729] 40cm/min CNT100  ;
 1124:L P[730] 40cm/min CNT100  ;
 1125:   ;
 1126:L P[731] 40cm/min CNT100  ;
 1127:L P[732] 40cm/min CNT100  ;
 1128:   ;
 1129:L P[733] 40cm/min CNT100  ;
 1130:L P[734] 40cm/min CNT100  ;
 1131:   ;
 1132:L P[735] 40cm/min CNT100  ;
 1133:L P[736] 40cm/min CNT100  ;
 1134:   ;
 1135:L P[737] 40cm/min CNT100  ;
 1136:L P[738] 40cm/min CNT100  ;
 1137:   ;
 1138:L P[739] 40cm/min CNT100  ;
 1139:L P[740] 40cm/min CNT100  ;
 1140:   ;
 1141:L P[741] 40cm/min CNT100  ;
 1142:L P[742] 40cm/min CNT100  ;
 1143:   ;
 1144:L P[743] 40cm/min CNT100  ;
 1145:L P[744] 40cm/min CNT100  ;
 1146:   ;
 1147:L P[745] 40cm/min CNT100  ;
 1148:L P[746] 40cm/min CNT100  ;
 1149:   ;
 1150:L P[747] 40cm/min CNT100  ;
 1151:L P[748] 40cm/min CNT100  ;
 1152:   ;
 1153:L P[749] 40cm/min CNT100  ;
 1154:L P[750] 40cm/min CNT100  ;
 1155:   ;
 1156:L P[751] 40cm/min CNT100  ;
 1157:L P[752] 40cm/min CNT100  ;
 1158:   ;
 1159:L P[753] 40cm/min CNT100  ;
 1160:L P[754] 40cm/min CNT100  ;
 1161:   ;
 1162:L P[755] 40cm/min CNT100  ;
 1163:L P[756] 40cm/min CNT100  ;
 1164:   ;
 1165:L P[757] 40cm/min CNT100  ;
 1166:L P[758] 40cm/min CNT100  ;
 1167:   ;
 1168:L P[759] 40cm/min CNT100  ;
 1169:L P[760] 40cm/min CNT100  ;
 1170:   ;
 1171:L P[761] 40cm/min CNT100  ;
 1172:L P[762] 40cm/min CNT100  ;
 1173:   ;
 1174:L P[763] 40cm/min CNT100  ;
 1175:L P[764] 40cm/min CNT100  ;
 1176:   ;
 1177:L P[765] 40cm/min CNT100  ;
 1178:L P[766] 40cm/min CNT100  ;
 1179:   ;
 1180:L P[767] 40cm/min CNT100  ;
 1181:L P[768] 40cm/min CNT100  ;
 1182:   ;
 1183:L P[769] 40cm/min CNT100  ;
 1184:L P[770] 40cm/min FINE  ;
 1185:  CALL SUB_END ;
 1186:   ;
 1187:L P[771] 100mm/sec FINE  ;
 1188:   ;
 1189:L P[772] 100mm/sec FINE  ;
 1190:L P[773] 40cm/min FINE  ;
 1191:  CALL SUB_START ;
 1192:   ;
 1193:L P[774] 40cm/min CNT100  ;
 1194:   ;
 1195:L P[775] 40cm/min CNT100  ;
 1196:L P[776] 40cm/min CNT100  ;
 1197:   ;
 1198:L P[777] 40cm/min CNT100  ;
 1199:L P[778] 40cm/min CNT100  ;
 1200:   ;
 1201:L P[779] 40cm/min CNT100  ;
 1202:L P[780] 40cm/min FINE  ;
 1203:  CALL SUB_END ;
 1204:   ;
 1205:L P[781] 100mm/sec FINE  ;
 1206:   ;
 1207:   ;
 1208:   ;
 1209:   ;
 1210:   ;
 1211:   ;
 1212:   ;
 1213:   ;
/POSP[1]
   GP1:
    UF : 0, UT : 1,		CONFIG : ,
    X =   703.16  mm,	Y =   -43.83  mm,	Z =   -60.0  mm,
    W =     0.00 deg,	P =     0.00 deg,	R =    0.00 deg
};
P[2]
   GP1:
    UF : 0, UT : 1,		CONFIG : ,
    X =   721.52  mm,	Y =   -61.41  mm,	Z =   -60.0  mm,
    W =     0.00 deg,	P =     0.00 deg,	R =    0.00 deg
};
P[3]
   GP1:
    UF : 0, UT : 1,		CONFIG : ,
    X =   733.74  mm,	Y =   -55.15  mm,	Z =   -60.0  mm,
    W =     0.00 deg,	P =     0.00 deg,	R =    0.00 deg
};
P[4]
   GP1:
    UF : 0, UT : 1,		CONFIG : ,
    X =   740.74  mm,	Y =   -49.71  mm,	Z =   -60.0  mm,
    W =     0.00 deg,	P =     0.00 deg,	R =    0.00 deg
};
P[5]
   GP1:
    UF : 0, UT : 1,		CONFIG : ,
    X =   746.03  mm,	Y =   -43.0  mm,	Z =   -60.0  mm,
    W =     0.00 deg,	P =     0.00 deg,	R =    0.00 deg
};
P[6]
   GP1:
    UF : 0, UT : 1,		CONFIG : ,
    X =   752.39  mm,	Y =   -31.63  mm,	Z =   -60.0  mm,
    W =     0.00 deg,	P =     0.00 deg,	R =    0.00 deg
};
P[7]
   GP1:
    UF : 0, UT : 1,		CONFIG : ,
    X =   734.35  mm,	Y =   -14.28  mm,	Z =   -60.0  mm,
    W =     0.00 deg,	P =     0.00 deg,	R =    0.00 deg
};
P[8]
   GP1:
    UF : 0, UT : 1,		CONFIG : ,
    X =   752.54  mm,	Y =   4.98  mm,	Z =   -60.0  mm,
    W =     0.00 deg,	P =     0.00 deg,	R =    0.00 deg
};
P[9]
   GP1:
    UF : 0, UT : 1,		CONFIG : ,
    X =   746.36  mm,	Y =   17.07  mm,	Z =   -60.0  mm,
    W =     0.00 deg,	P =     0.00 deg,	R =    0.00 deg
};
P[10]
   GP1:
    UF : 0, UT : 1,		CONFIG : ,
    X =   740.27  mm,	Y =   23.03  mm,	Z =   -60.0  mm,
    W =     0.00 deg,	P =     0.00 deg,	R =    0.00 deg
};
P[11]
   GP1:
    UF : 0, UT : 1,		CONFIG : ,
    X =   734.08  mm,	Y =   28.95  mm,	Z =   -60.0  mm,
    W =     0.00 deg,	P =     0.00 deg,	R =    0.00 deg
};
P[12]
   GP1:
    UF : 0, UT : 1,		CONFIG : ,
    X =   721.56  mm,	Y =   35.18  mm,	Z =   -60.0  mm,
    W =     0.00 deg,	P =     0.00 deg,	R =    0.00 deg
};
P[13]
   GP1:
    UF : 0, UT : 1,		CONFIG : ,
    X =   703.34  mm,	Y =   17.16  mm,	Z =   -60.0  mm,
    W =     0.00 deg,	P =     0.00 deg,	R =    0.00 deg
};
P[14]
   GP1:
    UF : 0, UT : 1,		CONFIG : ,
    X =   684.87  mm,	Y =   34.86  mm,	Z =   -60.0  mm,
    W =     0.00 deg,	P =     0.00 deg,	R =    0.00 deg
};
P[15]
   GP1:
    UF : 0, UT : 1,		CONFIG : ,
    X =   672.45  mm,	Y =   28.62  mm,	Z =   -60.0  mm,
    W =     0.00 deg,	P =     0.00 deg,	R =    0.00 deg
};
P[16]
   GP1:
    UF : 0, UT : 1,		CONFIG : ,
    X =   665.47  mm,	Y =   23.15  mm,	Z =   -60.0  mm,
    W =     0.00 deg,	P =     0.00 deg,	R =    0.00 deg
};
P[17]
   GP1:
    UF : 0, UT : 1,		CONFIG : ,
    X =   660.23  mm,	Y =   16.8  mm,	Z =   -60.0  mm,
    W =     0.00 deg,	P =     0.00 deg,	R =    0.00 deg
};
P[18]
   GP1:
    UF : 0, UT : 1,		CONFIG : ,
    X =   653.78  mm,	Y =   4.8  mm,	Z =   -60.0  mm,
    W =     0.00 deg,	P =     0.00 deg,	R =    0.00 deg
};
P[19]
   GP1:
    UF : 0, UT : 1,		CONFIG : ,
    X =   671.83  mm,	Y =   -13.27  mm,	Z =   -60.0  mm,
    W =     0.00 deg,	P =     0.00 deg,	R =    0.00 deg
};
P[20]
   GP1:
    UF : 0, UT : 1,		CONFIG : ,
    X =   653.49  mm,	Y =   -31.39  mm,	Z =   -60.0  mm,
    W =     0.00 deg,	P =     0.00 deg,	R =    0.00 deg
};
P[21]
   GP1:
    UF : 0, UT : 1,		CONFIG : ,
    X =   659.95  mm,	Y =   -43.44  mm,	Z =   -60.0  mm,
    W =     0.00 deg,	P =     0.00 deg,	R =    0.00 deg
};
P[22]
   GP1:
    UF : 0, UT : 1,		CONFIG : ,
    X =   665.56  mm,	Y =   -49.42  mm,	Z =   -60.0  mm,
    W =     0.00 deg,	P =     0.00 deg,	R =    0.00 deg
};
P[23]
   GP1:
    UF : 0, UT : 1,		CONFIG : ,
    X =   672.42  mm,	Y =   -55.2  mm,	Z =   -60.0  mm,
    W =     0.00 deg,	P =     0.00 deg,	R =    0.00 deg
};
P[24]
   GP1:
    UF : 0, UT : 1,		CONFIG : ,
    X =   684.73  mm,	Y =   -61.77  mm,	Z =   -60.0  mm,
    W =     0.00 deg,	P =     0.00 deg,	R =    0.00 deg
};
P[25]
   GP1:
    UF : 0, UT : 1,		CONFIG : ,
    X =   702.26  mm,	Y =   -44.81  mm,	Z =   -60.0  mm,
    W =     0.00 deg,	P =     0.00 deg,	R =    0.00 deg
};
P[26]
   GP1:
    UF : 0, UT : 1,		CONFIG : ,
    X =   702.4  mm,	Y =   -34.83  mm,	Z =   -22.44  mm,
    W =     0.00 deg,	P =     0.00 deg,	R =    0.00 deg
};
P[27]
   GP1:
    UF : 0, UT : 1,		CONFIG : ,
    X =   745.91  mm,	Y =   -38.82  mm,	Z =   -60.0  mm,
    W =     0.00 deg,	P =     0.00 deg,	R =    0.00 deg
};
P[28]
   GP1:
    UF : 0, UT : 1,		CONFIG : ,
    X =   745.6  mm,	Y =   -28.31  mm,	Z =   -60.0  mm,
    W =     0.00 deg,	P =     0.00 deg,	R =    0.00 deg
};
P[29]
   GP1:
    UF : 0, UT : 1,		CONFIG : ,
    X =   742.56  mm,	Y =   -24.74  mm,	Z =   -60.0  mm,
    W =     0.00 deg,	P =     0.00 deg,	R =    0.00 deg
};
P[30]
   GP1:
    UF : 0, UT : 1,		CONFIG : ,
    X =   742.25  mm,	Y =   -44.09  mm,	Z =   -60.0  mm,
    W =     0.00 deg,	P =     0.00 deg,	R =    0.00 deg
};
P[31]
   GP1:
    UF : 0, UT : 1,		CONFIG : ,
    X =   702.06  mm,	Y =   -39.03  mm,	Z =   -33.34  mm,
    W =     0.00 deg,	P =     0.00 deg,	R =    0.00 deg
};
P[32]
   GP1:
    UF : 0, UT : 1,		CONFIG : ,
    X =   738.72  mm,	Y =   -47.97  mm,	Z =   -60.0  mm,
    W =     0.00 deg,	P =     0.00 deg,	R =    0.00 deg
};
P[33]
   GP1:
    UF : 0, UT : 1,		CONFIG : ,
    X =   738.75  mm,	Y =   -21.33  mm,	Z =   -60.0  mm,
    W =     0.00 deg,	P =     0.00 deg,	R =    0.00 deg
};
P[34]
   GP1:
    UF : 0, UT : 1,		CONFIG : ,
    X =   735.08  mm,	Y =   -17.59  mm,	Z =   -60.0  mm,
    W =     0.00 deg,	P =     0.00 deg,	R =    0.00 deg
};
P[35]
   GP1:
    UF : 0, UT : 1,		CONFIG : ,
    X =   734.93  mm,	Y =   -50.8  mm,	Z =   -60.0  mm,
    W =     0.00 deg,	P =     0.00 deg,	R =    0.00 deg
};
P[36]
   GP1:
    UF : 0, UT : 1,		CONFIG : ,
    X =   734.36  mm,	Y =   -48.4  mm,	Z =   -44.86  mm,
    W =     0.00 deg,	P =     0.00 deg,	R =    0.00 deg
};
P[37]
   GP1:
    UF : 0, UT : 1,		CONFIG : ,
    X =   746.33  mm,	Y =   15.02  mm,	Z =   -36.26  mm,
    W =     0.00 deg,	P =     0.00 deg,	R =    0.00 deg
};
P[38]
   GP1:
    UF : 0, UT : 1,		CONFIG : ,
    X =   745.63  mm,	Y =   12.24  mm,	Z =   -60.0  mm,
    W =     0.00 deg,	P =     0.00 deg,	R =    0.00 deg
};
P[39]
   GP1:
    UF : 0, UT : 1,		CONFIG : ,
    X =   745.64  mm,	Y =   1.13  mm,	Z =   -60.0  mm,
    W =     0.00 deg,	P =     0.00 deg,	R =    0.00 deg
};
P[40]
   GP1:
    UF : 0, UT : 1,		CONFIG : ,
    X =   741.98  mm,	Y =   -2.34  mm,	Z =   -60.0  mm,
    W =     0.00 deg,	P =     0.00 deg,	R =    0.00 deg
};
P[41]
   GP1:
    UF : 0, UT : 1,		CONFIG : ,
    X =   742.23  mm,	Y =   16.91  mm,	Z =   -60.0  mm,
    W =     0.00 deg,	P =     0.00 deg,	R =    0.00 deg
};
P[42]
   GP1:
    UF : 0, UT : 1,		CONFIG : ,
    X =   738.43  mm,	Y =   20.92  mm,	Z =   -60.0  mm,
    W =     0.00 deg,	P =     0.00 deg,	R =    0.00 deg
};
P[43]
   GP1:
    UF : 0, UT : 1,		CONFIG : ,
    X =   738.47  mm,	Y =   -5.98  mm,	Z =   -60.0  mm,
    W =     0.00 deg,	P =     0.00 deg,	R =    0.00 deg
};
P[44]
   GP1:
    UF : 0, UT : 1,		CONFIG : ,
    X =   734.99  mm,	Y =   -9.17  mm,	Z =   -60.0  mm,
    W =     0.00 deg,	P =     0.00 deg,	R =    0.00 deg
};
P[45]
   GP1:
    UF : 0, UT : 1,		CONFIG : ,
    X =   735.21  mm,	Y =   23.85  mm,	Z =   -60.0  mm,
    W =     0.00 deg,	P =     0.00 deg,	R =    0.00 deg
};
P[46]
   GP1:
    UF : 0, UT : 1,		CONFIG : ,
    X =   731.66  mm,	Y =   26.08  mm,	Z =   -60.0  mm,
    W =     0.00 deg,	P =     0.00 deg,	R =    0.00 deg
};
P[47]
   GP1:
    UF : 0, UT : 1,		CONFIG : ,
    X =   731.7  mm,	Y =   -53.49  mm,	Z =   -60.0  mm,
    W =     0.00 deg,	P =     0.00 deg,	R =    0.00 deg
};
P[48]
   GP1:
    UF : 0, UT : 1,		CONFIG : ,
    X =   728.02  mm,	Y =   -55.61  mm,	Z =   -60.0  mm,
    W =     0.00 deg,	P =     0.00 deg,	R =    0.00 deg
};
P[49]
   GP1:
    UF : 0, UT : 1,		CONFIG : ,
    X =   727.91  mm,	Y =   28.7  mm,	Z =   -60.0  mm,
    W =     0.00 deg,	P =     0.00 deg,	R =    0.00 deg
};
P[50]
   GP1:
    UF : 0, UT : 1,		CONFIG : ,
    X =   724.2  mm,	Y =   30.43  mm,	Z =   -60.0  mm,
    W =     0.00 deg,	P =     0.00 deg,	R =    0.00 deg
};
P[51]
   GP1:
    UF : 0, UT : 1,		CONFIG : ,
    X =   724.32  mm,	Y =   -57.17  mm,	Z =   -60.0  mm,
    W =     0.00 deg,	P =     0.00 deg,	R =    0.00 deg
};
P[52]
   GP1:
    UF : 0, UT : 1,		CONFIG : ,
    X =   720.57  mm,	Y =   -57.4  mm,	Z =   -60.0  mm,
    W =     0.00 deg,	P =     0.00 deg,	R =    0.00 deg
};
P[53]
   GP1:
    UF : 0, UT : 1,		CONFIG : ,
    X =   720.8  mm,	Y =   30.1  mm,	Z =   -60.0  mm,
    W =     0.00 deg,	P =     0.00 deg,	R =    0.00 deg
};
P[54]
   GP1:
    UF : 0, UT : 1,		CONFIG : ,
    X =   717.17  mm,	Y =   27.65  mm,	Z =   -60.0  mm,
    W =     0.00 deg,	P =     0.00 deg,	R =    0.00 deg
};
P[55]
   GP1:
    UF : 0, UT : 1,		CONFIG : ,
    X =   717.12  mm,	Y =   -53.83  mm,	Z =   -60.0  mm,
    W =     0.00 deg,	P =     0.00 deg,	R =    0.00 deg
};
P[56]
   GP1:
    UF : 0, UT : 1,		CONFIG : ,
    X =   713.61  mm,	Y =   -50.36  mm,	Z =   -60.0  mm,
    W =     0.00 deg,	P =     0.00 deg,	R =    0.00 deg
};
P[57]
   GP1:
    UF : 0, UT : 1,		CONFIG : ,
    X =   713.82  mm,	Y =   23.45  mm,	Z =   -60.0  mm,
    W =     0.00 deg,	P =     0.00 deg,	R =    0.00 deg
};
P[58]
   GP1:
    UF : 0, UT : 1,		CONFIG : ,
    X =   710.02  mm,	Y =   20.34  mm,	Z =   -60.0  mm,
    W =     0.00 deg,	P =     0.00 deg,	R =    0.00 deg
};
P[59]
   GP1:
    UF : 0, UT : 1,		CONFIG : ,
    X =   709.93  mm,	Y =   -47.21  mm,	Z =   -60.0  mm,
    W =     0.00 deg,	P =     0.00 deg,	R =    0.00 deg
};
P[60]
   GP1:
    UF : 0, UT : 1,		CONFIG : ,
    X =   706.63  mm,	Y =   -44.0  mm,	Z =   -60.0  mm,
    W =     0.00 deg,	P =     0.00 deg,	R =    0.00 deg
};
P[61]
   GP1:
    UF : 0, UT : 1,		CONFIG : ,
    X =   706.52  mm,	Y =   16.21  mm,	Z =   -60.0  mm,
    W =     0.00 deg,	P =     0.00 deg,	R =    0.00 deg
};
P[62]
   GP1:
    UF : 0, UT : 1,		CONFIG : ,
    X =   702.88  mm,	Y =   13.99  mm,	Z =   -60.0  mm,
    W =     0.00 deg,	P =     0.00 deg,	R =    0.00 deg
};
P[63]
   GP1:
    UF : 0, UT : 1,		CONFIG : ,
    X =   702.96  mm,	Y =   -41.33  mm,	Z =   -60.0  mm,
    W =     0.00 deg,	P =     0.00 deg,	R =    0.00 deg
};
P[64]
   GP1:
    UF : 0, UT : 1,		CONFIG : ,
    X =   699.22  mm,	Y =   -44.1  mm,	Z =   -60.0  mm,
    W =     0.00 deg,	P =     0.00 deg,	R =    0.00 deg
};
P[65]
   GP1:
    UF : 0, UT : 1,		CONFIG : ,
    X =   699.2  mm,	Y =   16.78  mm,	Z =   -60.0  mm,
    W =     0.00 deg,	P =     0.00 deg,	R =    0.00 deg
};
P[66]
   GP1:
    UF : 0, UT : 1,		CONFIG : ,
    X =   695.88  mm,	Y =   20.12  mm,	Z =   -60.0  mm,
    W =     0.00 deg,	P =     0.00 deg,	R =    0.00 deg
};
P[67]
   GP1:
    UF : 0, UT : 1,		CONFIG : ,
    X =   695.86  mm,	Y =   -47.64  mm,	Z =   -60.0  mm,
    W =     0.00 deg,	P =     0.00 deg,	R =    0.00 deg
};
P[68]
   GP1:
    UF : 0, UT : 1,		CONFIG : ,
    X =   692.33  mm,	Y =   -50.84  mm,	Z =   -60.0  mm,
    W =     0.00 deg,	P =     0.00 deg,	R =    0.00 deg
};
P[69]
   GP1:
    UF : 0, UT : 1,		CONFIG : ,
    X =   692.16  mm,	Y =   23.98  mm,	Z =   -60.0  mm,
    W =     0.00 deg,	P =     0.00 deg,	R =    0.00 deg
};
P[70]
   GP1:
    UF : 0, UT : 1,		CONFIG : ,
    X =   688.5  mm,	Y =   27.64  mm,	Z =   -60.0  mm,
    W =     0.00 deg,	P =     0.00 deg,	R =    0.00 deg
};
P[71]
   GP1:
    UF : 0, UT : 1,		CONFIG : ,
    X =   688.56  mm,	Y =   -55.35  mm,	Z =   -60.0  mm,
    W =     0.00 deg,	P =     0.00 deg,	R =    0.00 deg
};
P[72]
   GP1:
    UF : 0, UT : 1,		CONFIG : ,
    X =   685.03  mm,	Y =   -58.94  mm,	Z =   -60.0  mm,
    W =     0.00 deg,	P =     0.00 deg,	R =    0.00 deg
};
P[73]
   GP1:
    UF : 0, UT : 1,		CONFIG : ,
    X =   684.92  mm,	Y =   30.5  mm,	Z =   -60.0  mm,
    W =     0.00 deg,	P =     0.00 deg,	R =    0.00 deg
};
P[74]
   GP1:
    UF : 0, UT : 1,		CONFIG : ,
    X =   681.24  mm,	Y =   30.33  mm,	Z =   -60.0  mm,
    W =     0.00 deg,	P =     0.00 deg,	R =    0.00 deg
};
P[75]
   GP1:
    UF : 0, UT : 1,		CONFIG : ,
    X =   681.29  mm,	Y =   -57.26  mm,	Z =   -60.0  mm,
    W =     0.00 deg,	P =     0.00 deg,	R =    0.00 deg
};
P[76]
   GP1:
    UF : 0, UT : 1,		CONFIG : ,
    X =   677.62  mm,	Y =   -55.65  mm,	Z =   -60.0  mm,
    W =     0.00 deg,	P =     0.00 deg,	R =    0.00 deg
};
P[77]
   GP1:
    UF : 0, UT : 1,		CONFIG : ,
    X =   677.59  mm,	Y =   28.58  mm,	Z =   -60.0  mm,
    W =     0.00 deg,	P =     0.00 deg,	R =    0.00 deg
};
P[78]
   GP1:
    UF : 0, UT : 1,		CONFIG : ,
    X =   674.1  mm,	Y =   26.56  mm,	Z =   -60.0  mm,
    W =     0.00 deg,	P =     0.00 deg,	R =    0.00 deg
};
P[79]
   GP1:
    UF : 0, UT : 1,		CONFIG : ,
    X =   674.25  mm,	Y =   -53.42  mm,	Z =   -60.0  mm,
    W =     0.00 deg,	P =     0.00 deg,	R =    0.00 deg
};
P[80]
   GP1:
    UF : 0, UT : 1,		CONFIG : ,
    X =   670.76  mm,	Y =   -51.3  mm,	Z =   -60.0  mm,
    W =     0.00 deg,	P =     0.00 deg,	R =    0.00 deg
};
P[81]
   GP1:
    UF : 0, UT : 1,		CONFIG : ,
    X =   670.81  mm,	Y =   -17.68  mm,	Z =   -60.0  mm,
    W =     0.00 deg,	P =     0.00 deg,	R =    0.00 deg
};
P[82]
   GP1:
    UF : 0, UT : 1,		CONFIG : ,
    X =   667.33  mm,	Y =   -21.19  mm,	Z =   -60.0  mm,
    W =     0.00 deg,	P =     0.00 deg,	R =    0.00 deg
};
P[83]
   GP1:
    UF : 0, UT : 1,		CONFIG : ,
    X =   667.09  mm,	Y =   -47.83  mm,	Z =   -60.0  mm,
    W =     0.00 deg,	P =     0.00 deg,	R =    0.00 deg
};
P[84]
   GP1:
    UF : 0, UT : 1,		CONFIG : ,
    X =   663.78  mm,	Y =   -44.4  mm,	Z =   -60.0  mm,
    W =     0.00 deg,	P =     0.00 deg,	R =    0.00 deg
};
P[85]
   GP1:
    UF : 0, UT : 1,		CONFIG : ,
    X =   663.58  mm,	Y =   -24.56  mm,	Z =   -60.0  mm,
    W =     0.00 deg,	P =     0.00 deg,	R =    0.00 deg
};
P[86]
   GP1:
    UF : 0, UT : 1,		CONFIG : ,
    X =   660.1  mm,	Y =   -28.5  mm,	Z =   -60.0  mm,
    W =     0.00 deg,	P =     0.00 deg,	R =    0.00 deg
};
P[87]
   GP1:
    UF : 0, UT : 1,		CONFIG : ,
    X =   660.07  mm,	Y =   -39.19  mm,	Z =   -60.0  mm,
    W =     0.00 deg,	P =     0.00 deg,	R =    0.00 deg
};
P[88]
   GP1:
    UF : 0, UT : 1,		CONFIG : ,
    X =   660.08  mm,	Y =   -39.17  mm,	Z =   -51.4  mm,
    W =     0.00 deg,	P =     0.00 deg,	R =    0.00 deg
};
P[89]
   GP1:
    UF : 0, UT : 1,		CONFIG : ,
    X =   671.06  mm,	Y =   23.81  mm,	Z =   -60.0  mm,
    W =     0.00 deg,	P =     0.00 deg,	R =    0.00 deg
};
P[90]
   GP1:
    UF : 0, UT : 1,		CONFIG : ,
    X =   670.96  mm,	Y =   27.88  mm,	Z =   -43.69  mm,
    W =     0.00 deg,	P =     0.00 deg,	R =    0.00 deg
};
P[91]
   GP1:
    UF : 0, UT : 1,		CONFIG : ,
    X =   670.91  mm,	Y =   -9.68  mm,	Z =   -60.0  mm,
    W =     0.00 deg,	P =     0.00 deg,	R =    0.00 deg
};
P[92]
   GP1:
    UF : 0, UT : 1,		CONFIG : ,
    X =   667.14  mm,	Y =   -6.19  mm,	Z =   -60.0  mm,
    W =     0.00 deg,	P =     0.00 deg,	R =    0.00 deg
};
P[93]
   GP1:
    UF : 0, UT : 1,		CONFIG : ,
    X =   667.13  mm,	Y =   20.84  mm,	Z =   -60.0  mm,
    W =     0.00 deg,	P =     0.00 deg,	R =    0.00 deg
};
P[94]
   GP1:
    UF : 0, UT : 1,		CONFIG : ,
    X =   663.81  mm,	Y =   16.92  mm,	Z =   -60.0  mm,
    W =     0.00 deg,	P =     0.00 deg,	R =    0.00 deg
};
P[95]
   GP1:
    UF : 0, UT : 1,		CONFIG : ,
    X =   663.73  mm,	Y =   -2.8  mm,	Z =   -60.0  mm,
    W =     0.00 deg,	P =     0.00 deg,	R =    0.00 deg
};
P[96]
   GP1:
    UF : 0, UT : 1,		CONFIG : ,
    X =   660.25  mm,	Y =   0.7  mm,	Z =   -60.0  mm,
    W =     0.00 deg,	P =     0.00 deg,	R =    0.00 deg
};
P[97]
   GP1:
    UF : 0, UT : 1,		CONFIG : ,
    X =   660.27  mm,	Y =   11.93  mm,	Z =   -60.0  mm,
    W =     0.00 deg,	P =     0.00 deg,	R =    0.00 deg
};
P[98]
   GP1:
    UF : 0, UT : 1,		CONFIG : ,
    X =   659.93  mm,	Y =   20.33  mm,	Z =   -36.91  mm,
    W =     0.00 deg,	P =     0.00 deg,	R =    0.00 deg
};
P[99]
   GP1:
    UF : 0, UT : 1,		CONFIG : ,
    X =   730.97  mm,	Y =   -14.53  mm,	Z =   -19.6  mm,
    W =     0.00 deg,	P =     0.00 deg,	R =    0.00 deg
};
P[100]
   GP1:
    UF : 0, UT : 1,		CONFIG : ,
    X =   736.34  mm,	Y =   -13.69  mm,	Z =   -57.85  mm,
    W =     0.00 deg,	P =     0.00 deg,	R =    0.00 deg
};
P[101]
   GP1:
    UF : 0, UT : 1,		CONFIG : ,
    X =   753.97  mm,	Y =   4.56  mm,	Z =   -59.47  mm,
    W =     0.00 deg,	P =     0.00 deg,	R =    0.00 deg
};
P[102]
   GP1:
    UF : 0, UT : 1,		CONFIG : ,
    X =   747.82  mm,	Y =   16.81  mm,	Z =   -58.83  mm,
    W =     0.00 deg,	P =     0.00 deg,	R =    0.00 deg
};
P[103]
   GP1:
    UF : 0, UT : 1,		CONFIG : ,
    X =   742.45  mm,	Y =   23.85  mm,	Z =   -58.29  mm,
    W =     0.00 deg,	P =     0.00 deg,	R =    0.00 deg
};
P[104]
   GP1:
    UF : 0, UT : 1,		CONFIG : ,
    X =   735.81  mm,	Y =   29.19  mm,	Z =   -57.63  mm,
    W =     0.00 deg,	P =     0.00 deg,	R =    0.00 deg
};
P[105]
   GP1:
    UF : 0, UT : 1,		CONFIG : ,
    X =   724.54  mm,	Y =   35.62  mm,	Z =   -56.53  mm,
    W =     0.00 deg,	P =     0.00 deg,	R =    0.00 deg
};
P[106]
   GP1:
    UF : 0, UT : 1,		CONFIG : ,
    X =   707.14  mm,	Y =   17.69  mm,	Z =   -54.93  mm,
    W =     0.00 deg,	P =     0.00 deg,	R =    0.00 deg
};
P[107]
   GP1:
    UF : 0, UT : 1,		CONFIG : ,
    X =   688.09  mm,	Y =   36.01  mm,	Z =   -53.03  mm,
    W =     0.00 deg,	P =     0.00 deg,	R =    0.00 deg
};
P[108]
   GP1:
    UF : 0, UT : 1,		CONFIG : ,
    X =   676.01  mm,	Y =   29.91  mm,	Z =   -51.89  mm,
    W =     0.00 deg,	P =     0.00 deg,	R =    0.00 deg
};
P[109]
   GP1:
    UF : 0, UT : 1,		CONFIG : ,
    X =   670.04  mm,	Y =   23.85  mm,	Z =   -51.34  mm,
    W =     0.00 deg,	P =     0.00 deg,	R =    0.00 deg
};
P[110]
   GP1:
    UF : 0, UT : 1,		CONFIG : ,
    X =   664.11  mm,	Y =   17.7  mm,	Z =   -50.8  mm,
    W =     0.00 deg,	P =     0.00 deg,	R =    0.00 deg
};
P[111]
   GP1:
    UF : 0, UT : 1,		CONFIG : ,
    X =   657.82  mm,	Y =   5.22  mm,	Z =   -50.24  mm,
    W =     0.00 deg,	P =     0.00 deg,	R =    0.00 deg
};
P[112]
   GP1:
    UF : 0, UT : 1,		CONFIG : ,
    X =   675.64  mm,	Y =   -13.12  mm,	Z =   -52.02  mm,
    W =     0.00 deg,	P =     0.00 deg,	R =    0.00 deg
};
P[113]
   GP1:
    UF : 0, UT : 1,		CONFIG : ,
    X =   657.89  mm,	Y =   -31.47  mm,	Z =   -50.39  mm,
    W =     0.00 deg,	P =     0.00 deg,	R =    0.00 deg
};
P[114]
   GP1:
    UF : 0, UT : 1,		CONFIG : ,
    X =   664.02  mm,	Y =   -43.93  mm,	Z =   -51.02  mm,
    W =     0.00 deg,	P =     0.00 deg,	R =    0.00 deg
};
P[115]
   GP1:
    UF : 0, UT : 1,		CONFIG : ,
    X =   669.42  mm,	Y =   -50.95  mm,	Z =   -51.57  mm,
    W =     0.00 deg,	P =     0.00 deg,	R =    0.00 deg
};
P[116]
   GP1:
    UF : 0, UT : 1,		CONFIG : ,
    X =   675.7  mm,	Y =   -56.23  mm,	Z =   -52.19  mm,
    W =     0.00 deg,	P =     0.00 deg,	R =    0.00 deg
};
P[117]
   GP1:
    UF : 0, UT : 1,		CONFIG : ,
    X =   687.6  mm,	Y =   -62.76  mm,	Z =   -53.36  mm,
    W =     0.00 deg,	P =     0.00 deg,	R =    0.00 deg
};
P[118]
   GP1:
    UF : 0, UT : 1,		CONFIG : ,
    X =   705.71  mm,	Y =   -44.82  mm,	Z =   -55.03  mm,
    W =     0.00 deg,	P =     0.00 deg,	R =    0.00 deg
};
P[119]
   GP1:
    UF : 0, UT : 1,		CONFIG : ,
    X =   723.63  mm,	Y =   -63.28  mm,	Z =   -56.82  mm,
    W =     0.00 deg,	P =     0.00 deg,	R =    0.00 deg
};
P[120]
   GP1:
    UF : 0, UT : 1,		CONFIG : ,
    X =   735.66  mm,	Y =   -56.89  mm,	Z =   -57.95  mm,
    W =     0.00 deg,	P =     0.00 deg,	R =    0.00 deg
};
P[121]
   GP1:
    UF : 0, UT : 1,		CONFIG : ,
    X =   741.66  mm,	Y =   -51.32  mm,	Z =   -58.5  mm,
    W =     0.00 deg,	P =     0.00 deg,	R =    0.00 deg
};
P[122]
   GP1:
    UF : 0, UT : 1,		CONFIG : ,
    X =   747.45  mm,	Y =   -44.5  mm,	Z =   -59.03  mm,
    W =     0.00 deg,	P =     0.00 deg,	R =    0.00 deg
};
P[123]
   GP1:
    UF : 0, UT : 1,		CONFIG : ,
    X =   754.08  mm,	Y =   -32.23  mm,	Z =   -59.62  mm,
    W =     0.00 deg,	P =     0.00 deg,	R =    0.00 deg
};
P[124]
   GP1:
    UF : 0, UT : 1,		CONFIG : ,
    X =   737.31  mm,	Y =   -14.6  mm,	Z =   -57.94  mm,
    W =     0.00 deg,	P =     0.00 deg,	R =    0.00 deg
};
P[125]
   GP1:
    UF : 0, UT : 1,		CONFIG : ,
    X =   734.1  mm,	Y =   -14.86  mm,	Z =   -30.86  mm,
    W =     0.00 deg,	P =     0.00 deg,	R =    0.00 deg
};
P[126]
   GP1:
    UF : 0, UT : 1,		CONFIG : ,
    X =   731.65  mm,	Y =   29.09  mm,	Z =   -57.23  mm,
    W =     0.00 deg,	P =     0.00 deg,	R =    0.00 deg
};
P[127]
   GP1:
    UF : 0, UT : 1,		CONFIG : ,
    X =   721.19  mm,	Y =   28.85  mm,	Z =   -56.23  mm,
    W =     0.00 deg,	P =     0.00 deg,	R =    0.00 deg
};
P[128]
   GP1:
    UF : 0, UT : 1,		CONFIG : ,
    X =   717.61  mm,	Y =   25.84  mm,	Z =   -55.9  mm,
    W =     0.00 deg,	P =     0.00 deg,	R =    0.00 deg
};
P[129]
   GP1:
    UF : 0, UT : 1,		CONFIG : ,
    X =   736.87  mm,	Y =   25.39  mm,	Z =   -57.75  mm,
    W =     0.00 deg,	P =     0.00 deg,	R =    0.00 deg
};
P[130]
   GP1:
    UF : 0, UT : 1,		CONFIG : ,
    X =   740.71  mm,	Y =   21.84  mm,	Z =   -58.13  mm,
    W =     0.00 deg,	P =     0.00 deg,	R =    0.00 deg
};
P[131]
   GP1:
    UF : 0, UT : 1,		CONFIG : ,
    X =   714.19  mm,	Y =   22.04  mm,	Z =   -55.59  mm,
    W =     0.00 deg,	P =     0.00 deg,	R =    0.00 deg
};
P[132]
   GP1:
    UF : 0, UT : 1,		CONFIG : ,
    X =   710.44  mm,	Y =   18.4  mm,	Z =   -55.24  mm,
    W =     0.00 deg,	P =     0.00 deg,	R =    0.00 deg
};
P[133]
   GP1:
    UF : 0, UT : 1,		CONFIG : ,
    X =   743.5  mm,	Y =   18.03  mm,	Z =   -58.41  mm,
    W =     0.00 deg,	P =     0.00 deg,	R =    0.00 deg
};
P[134]
   GP1:
    UF : 0, UT : 1,		CONFIG : ,
    X =   742.55  mm,	Y =   17.42  mm,	Z =   -43.11  mm,
    W =     0.00 deg,	P =     0.00 deg,	R =    0.00 deg
};
P[135]
   GP1:
    UF : 0, UT : 1,		CONFIG : ,
    X =   680.32  mm,	Y =   29.77  mm,	Z =   -28.46  mm,
    W =     0.00 deg,	P =     0.00 deg,	R =    0.00 deg
};
P[136]
   GP1:
    UF : 0, UT : 1,		CONFIG : ,
    X =   680.83  mm,	Y =   29.14  mm,	Z =   -52.36  mm,
    W =     0.00 deg,	P =     0.00 deg,	R =    0.00 deg
};
P[137]
   GP1:
    UF : 0, UT : 1,		CONFIG : ,
    X =   691.88  mm,	Y =   29.08  mm,	Z =   -53.42  mm,
    W =     0.00 deg,	P =     0.00 deg,	R =    0.00 deg
};
P[138]
   GP1:
    UF : 0, UT : 1,		CONFIG : ,
    X =   695.31  mm,	Y =   25.4  mm,	Z =   -53.76  mm,
    W =     0.00 deg,	P =     0.00 deg,	R =    0.00 deg
};
P[139]
   GP1:
    UF : 0, UT : 1,		CONFIG : ,
    X =   676.15  mm,	Y =   25.77  mm,	Z =   -51.92  mm,
    W =     0.00 deg,	P =     0.00 deg,	R =    0.00 deg
};
P[140]
   GP1:
    UF : 0, UT : 1,		CONFIG : ,
    X =   672.13  mm,	Y =   22.0  mm,	Z =   -51.55  mm,
    W =     0.00 deg,	P =     0.00 deg,	R =    0.00 deg
};
P[141]
   GP1:
    UF : 0, UT : 1,		CONFIG : ,
    X =   698.91  mm,	Y =   21.87  mm,	Z =   -54.12  mm,
    W =     0.00 deg,	P =     0.00 deg,	R =    0.00 deg
};
P[142]
   GP1:
    UF : 0, UT : 1,		CONFIG : ,
    X =   702.06  mm,	Y =   18.36  mm,	Z =   -54.44  mm,
    W =     0.00 deg,	P =     0.00 deg,	R =    0.00 deg
};
P[143]
   GP1:
    UF : 0, UT : 1,		CONFIG : ,
    X =   669.19  mm,	Y =   18.8  mm,	Z =   -51.28  mm,
    W =     0.00 deg,	P =     0.00 deg,	R =    0.00 deg
};
P[144]
   GP1:
    UF : 0, UT : 1,		CONFIG : ,
    X =   666.95  mm,	Y =   15.26  mm,	Z =   -51.08  mm,
    W =     0.00 deg,	P =     0.00 deg,	R =    0.00 deg
};
P[145]
   GP1:
    UF : 0, UT : 1,		CONFIG : ,
    X =   746.16  mm,	Y =   14.79  mm,	Z =   -58.68  mm,
    W =     0.00 deg,	P =     0.00 deg,	R =    0.00 deg
};
P[146]
   GP1:
    UF : 0, UT : 1,		CONFIG : ,
    X =   748.24  mm,	Y =   11.09  mm,	Z =   -58.89  mm,
    W =     0.00 deg,	P =     0.00 deg,	R =    0.00 deg
};
P[147]
   GP1:
    UF : 0, UT : 1,		CONFIG : ,
    X =   664.31  mm,	Y =   11.53  mm,	Z =   -50.84  mm,
    W =     0.00 deg,	P =     0.00 deg,	R =    0.00 deg
};
P[148]
   GP1:
    UF : 0, UT : 1,		CONFIG : ,
    X =   662.57  mm,	Y =   7.83  mm,	Z =   -50.69  mm,
    W =     0.00 deg,	P =     0.00 deg,	R =    0.00 deg
};
P[149]
   GP1:
    UF : 0, UT : 1,		CONFIG : ,
    X =   749.77  mm,	Y =   7.39  mm,	Z =   -59.06  mm,
    W =     0.00 deg,	P =     0.00 deg,	R =    0.00 deg
};
P[150]
   GP1:
    UF : 0, UT : 1,		CONFIG : ,
    X =   749.97  mm,	Y =   3.63  mm,	Z =   -59.09  mm,
    W =     0.00 deg,	P =     0.00 deg,	R =    0.00 deg
};
P[151]
   GP1:
    UF : 0, UT : 1,		CONFIG : ,
    X =   662.87  mm,	Y =   4.43  mm,	Z =   -50.73  mm,
    W =     0.00 deg,	P =     0.00 deg,	R =    0.00 deg
};
P[152]
   GP1:
    UF : 0, UT : 1,		CONFIG : ,
    X =   665.29  mm,	Y =   0.79  mm,	Z =   -50.97  mm,
    W =     0.00 deg,	P =     0.00 deg,	R =    0.00 deg
};
P[153]
   GP1:
    UF : 0, UT : 1,		CONFIG : ,
    X =   746.39  mm,	Y =   0.21  mm,	Z =   -58.76  mm,
    W =     0.00 deg,	P =     0.00 deg,	R =    0.00 deg
};
P[154]
   GP1:
    UF : 0, UT : 1,		CONFIG : ,
    X =   742.92  mm,	Y =   -3.28  mm,	Z =   -58.44  mm,
    W =     0.00 deg,	P =     0.00 deg,	R =    0.00 deg
};
P[155]
   GP1:
    UF : 0, UT : 1,		CONFIG : ,
    X =   669.44  mm,	Y =   -2.59  mm,	Z =   -51.39  mm,
    W =     0.00 deg,	P =     0.00 deg,	R =    0.00 deg
};
P[156]
   GP1:
    UF : 0, UT : 1,		CONFIG : ,
    X =   672.52  mm,	Y =   -6.41  mm,	Z =   -51.7  mm,
    W =     0.00 deg,	P =     0.00 deg,	R =    0.00 deg
};
P[157]
   GP1:
    UF : 0, UT : 1,		CONFIG : ,
    X =   739.76  mm,	Y =   -6.94  mm,	Z =   -58.15  mm,
    W =     0.00 deg,	P =     0.00 deg,	R =    0.00 deg
};
P[158]
   GP1:
    UF : 0, UT : 1,		CONFIG : ,
    X =   736.53  mm,	Y =   -10.22  mm,	Z =   -57.85  mm,
    W =     0.00 deg,	P =     0.00 deg,	R =    0.00 deg
};
P[159]
   GP1:
    UF : 0, UT : 1,		CONFIG : ,
    X =   676.6  mm,	Y =   -9.94  mm,	Z =   -52.1  mm,
    W =     0.00 deg,	P =     0.00 deg,	R =    0.00 deg
};
P[160]
   GP1:
    UF : 0, UT : 1,		CONFIG : ,
    X =   678.79  mm,	Y =   -13.6  mm,	Z =   -52.32  mm,
    W =     0.00 deg,	P =     0.00 deg,	R =    0.00 deg
};
P[161]
   GP1:
    UF : 0, UT : 1,		CONFIG : ,
    X =   733.85  mm,	Y =   -13.87  mm,	Z =   -57.61  mm,
    W =     0.00 deg,	P =     0.00 deg,	R =    0.00 deg
};
P[162]
   GP1:
    UF : 0, UT : 1,		CONFIG : ,
    X =   736.59  mm,	Y =   -17.63  mm,	Z =   -57.89  mm,
    W =     0.00 deg,	P =     0.00 deg,	R =    0.00 deg
};
P[163]
   GP1:
    UF : 0, UT : 1,		CONFIG : ,
    X =   675.99  mm,	Y =   -17.26  mm,	Z =   -52.07  mm,
    W =     0.00 deg,	P =     0.00 deg,	R =    0.00 deg
};
P[164]
   GP1:
    UF : 0, UT : 1,		CONFIG : ,
    X =   672.64  mm,	Y =   -20.56  mm,	Z =   -51.76  mm,
    W =     0.00 deg,	P =     0.00 deg,	R =    0.00 deg
};
P[165]
   GP1:
    UF : 0, UT : 1,		CONFIG : ,
    X =   740.09  mm,	Y =   -21.01  mm,	Z =   -58.23  mm,
    W =     0.00 deg,	P =     0.00 deg,	R =    0.00 deg
};
P[166]
   GP1:
    UF : 0, UT : 1,		CONFIG : ,
    X =   743.24  mm,	Y =   -24.57  mm,	Z =   -58.55  mm,
    W =     0.00 deg,	P =     0.00 deg,	R =    0.00 deg
};
P[167]
   GP1:
    UF : 0, UT : 1,		CONFIG : ,
    X =   668.77  mm,	Y =   -24.25  mm,	Z =   -51.4  mm,
    W =     0.00 deg,	P =     0.00 deg,	R =    0.00 deg
};
P[168]
   GP1:
    UF : 0, UT : 1,		CONFIG : ,
    X =   665.1  mm,	Y =   -27.88  mm,	Z =   -51.07  mm,
    W =     0.00 deg,	P =     0.00 deg,	R =    0.00 deg
};
P[169]
   GP1:
    UF : 0, UT : 1,		CONFIG : ,
    X =   747.71  mm,	Y =   -28.36  mm,	Z =   -58.99  mm,
    W =     0.00 deg,	P =     0.00 deg,	R =    0.00 deg
};
P[170]
   GP1:
    UF : 0, UT : 1,		CONFIG : ,
    X =   751.26  mm,	Y =   -31.92  mm,	Z =   -59.35  mm,
    W =     0.00 deg,	P =     0.00 deg,	R =    0.00 deg
};
P[171]
   GP1:
    UF : 0, UT : 1,		CONFIG : ,
    X =   662.24  mm,	Y =   -31.45  mm,	Z =   -50.8  mm,
    W =     0.00 deg,	P =     0.00 deg,	R =    0.00 deg
};
P[172]
   GP1:
    UF : 0, UT : 1,		CONFIG : ,
    X =   662.38  mm,	Y =   -35.13  mm,	Z =   -50.83  mm,
    W =     0.00 deg,	P =     0.00 deg,	R =    0.00 deg
};
P[173]
   GP1:
    UF : 0, UT : 1,		CONFIG : ,
    X =   749.56  mm,	Y =   -35.65  mm,	Z =   -59.2  mm,
    W =     0.00 deg,	P =     0.00 deg,	R =    0.00 deg
};
P[174]
   GP1:
    UF : 0, UT : 1,		CONFIG : ,
    X =   747.93  mm,	Y =   -39.3  mm,	Z =   -59.06  mm,
    W =     0.00 deg,	P =     0.00 deg,	R =    0.00 deg
};
P[175]
   GP1:
    UF : 0, UT : 1,		CONFIG : ,
    X =   664.09  mm,	Y =   -38.79  mm,	Z =   -51.01  mm,
    W =     0.00 deg,	P =     0.00 deg,	R =    0.00 deg
};
P[176]
   GP1:
    UF : 0, UT : 1,		CONFIG : ,
    X =   666.08  mm,	Y =   -42.29  mm,	Z =   -51.21  mm,
    W =     0.00 deg,	P =     0.00 deg,	R =    0.00 deg
};
P[177]
   GP1:
    UF : 0, UT : 1,		CONFIG : ,
    X =   745.7  mm,	Y =   -42.66  mm,	Z =   -58.86  mm,
    W =     0.00 deg,	P =     0.00 deg,	R =    0.00 deg
};
P[178]
   GP1:
    UF : 0, UT : 1,		CONFIG : ,
    X =   743.56  mm,	Y =   -46.14  mm,	Z =   -58.66  mm,
    W =     0.00 deg,	P =     0.00 deg,	R =    0.00 deg
};
P[179]
   GP1:
    UF : 0, UT : 1,		CONFIG : ,
    X =   710.09  mm,	Y =   -45.87  mm,	Z =   -55.45  mm,
    W =     0.00 deg,	P =     0.00 deg,	R =    0.00 deg
};
P[180]
   GP1:
    UF : 0, UT : 1,		CONFIG : ,
    X =   713.57  mm,	Y =   -49.37  mm,	Z =   -55.8  mm,
    W =     0.00 deg,	P =     0.00 deg,	R =    0.00 deg
};
P[181]
   GP1:
    UF : 0, UT : 1,		CONFIG : ,
    X =   740.08  mm,	Y =   -49.79  mm,	Z =   -58.34  mm,
    W =     0.00 deg,	P =     0.00 deg,	R =    0.00 deg
};
P[182]
   GP1:
    UF : 0, UT : 1,		CONFIG : ,
    X =   736.65  mm,	Y =   -53.07  mm,	Z =   -58.03  mm,
    W =     0.00 deg,	P =     0.00 deg,	R =    0.00 deg
};
P[183]
   GP1:
    UF : 0, UT : 1,		CONFIG : ,
    X =   716.89  mm,	Y =   -53.15  mm,	Z =   -56.13  mm,
    W =     0.00 deg,	P =     0.00 deg,	R =    0.00 deg
};
P[184]
   GP1:
    UF : 0, UT : 1,		CONFIG : ,
    X =   720.79  mm,	Y =   -56.64  mm,	Z =   -56.52  mm,
    W =     0.00 deg,	P =     0.00 deg,	R =    0.00 deg
};
P[185]
   GP1:
    UF : 0, UT : 1,		CONFIG : ,
    X =   731.43  mm,	Y =   -56.75  mm,	Z =   -57.54  mm,
    W =     0.00 deg,	P =     0.00 deg,	R =    0.00 deg
};
P[186]
   GP1:
    UF : 0, UT : 1,		CONFIG : ,
    X =   732.24  mm,	Y =   -56.77  mm,	Z =   -48.98  mm,
    W =     0.00 deg,	P =     0.00 deg,	R =    0.00 deg
};
P[187]
   GP1:
    UF : 0, UT : 1,		CONFIG : ,
    X =   666.3  mm,	Y =   -45.49  mm,	Z =   -34.87  mm,
    W =     0.00 deg,	P =     0.00 deg,	R =    0.00 deg
};
P[188]
   GP1:
    UF : 0, UT : 1,		CONFIG : ,
    X =   668.8  mm,	Y =   -45.35  mm,	Z =   -51.49  mm,
    W =     0.00 deg,	P =     0.00 deg,	R =    0.00 deg
};
P[189]
   GP1:
    UF : 0, UT : 1,		CONFIG : ,
    X =   702.13  mm,	Y =   -45.71  mm,	Z =   -54.69  mm,
    W =     0.00 deg,	P =     0.00 deg,	R =    0.00 deg
};
P[190]
   GP1:
    UF : 0, UT : 1,		CONFIG : ,
    X =   698.64  mm,	Y =   -49.47  mm,	Z =   -54.37  mm,
    W =     0.00 deg,	P =     0.00 deg,	R =    0.00 deg
};
P[191]
   GP1:
    UF : 0, UT : 1,		CONFIG : ,
    X =   671.73  mm,	Y =   -49.3  mm,	Z =   -51.78  mm,
    W =     0.00 deg,	P =     0.00 deg,	R =    0.00 deg
};
P[192]
   GP1:
    UF : 0, UT : 1,		CONFIG : ,
    X =   675.6  mm,	Y =   -52.65  mm,	Z =   -52.17  mm,
    W =     0.00 deg,	P =     0.00 deg,	R =    0.00 deg
};
P[193]
   GP1:
    UF : 0, UT : 1,		CONFIG : ,
    X =   695.23  mm,	Y =   -52.85  mm,	Z =   -54.05  mm,
    W =     0.00 deg,	P =     0.00 deg,	R =    0.00 deg
};
P[194]
   GP1:
    UF : 0, UT : 1,		CONFIG : ,
    X =   691.73  mm,	Y =   -56.31  mm,	Z =   -53.73  mm,
    W =     0.00 deg,	P =     0.00 deg,	R =    0.00 deg
};
P[195]
   GP1:
    UF : 0, UT : 1,		CONFIG : ,
    X =   680.55  mm,	Y =   -56.22  mm,	Z =   -52.66  mm,
    W =     0.00 deg,	P =     0.00 deg,	R =    0.00 deg
};
P[196]
   GP1:
    UF : 0, UT : 1,		CONFIG : ,
    X =   674.39  mm,	Y =   -56.59  mm,	Z =   -28.87  mm,
    W =     0.00 deg,	P =     0.00 deg,	R =    0.00 deg
};
P[196]
   GP1:
    UF : 0, UT : 1,		CONFIG : ,
    X =   734.18  mm,	Y =   -14.69  mm,	Z =   -59.0  mm,
    W =     0.00 deg,	P =     0.00 deg,	R =    0.00 deg
};
P[197]
   GP1:
    UF : 0, UT : 1,		CONFIG : ,
    X =   751.76  mm,	Y =   3.67  mm,	Z =   -59.0  mm,
    W =     0.00 deg,	P =     0.00 deg,	R =    0.00 deg
};
P[198]
   GP1:
    UF : 0, UT : 1,		CONFIG : ,
    X =   745.5  mm,	Y =   15.89  mm,	Z =   -59.0  mm,
    W =     0.00 deg,	P =     0.00 deg,	R =    0.00 deg
};
P[199]
   GP1:
    UF : 0, UT : 1,		CONFIG : ,
    X =   740.06  mm,	Y =   22.89  mm,	Z =   -59.0  mm,
    W =     0.00 deg,	P =     0.00 deg,	R =    0.00 deg
};
P[200]
   GP1:
    UF : 0, UT : 1,		CONFIG : ,
    X =   733.35  mm,	Y =   28.18  mm,	Z =   -59.0  mm,
    W =     0.00 deg,	P =     0.00 deg,	R =    0.00 deg
};
P[201]
   GP1:
    UF : 0, UT : 1,		CONFIG : ,
    X =   721.98  mm,	Y =   34.54  mm,	Z =   -59.0  mm,
    W =     0.00 deg,	P =     0.00 deg,	R =    0.00 deg
};
P[202]
   GP1:
    UF : 0, UT : 1,		CONFIG : ,
    X =   704.63  mm,	Y =   16.5  mm,	Z =   -59.0  mm,
    W =     0.00 deg,	P =     0.00 deg,	R =    0.00 deg
};
P[203]
   GP1:
    UF : 0, UT : 1,		CONFIG : ,
    X =   685.37  mm,	Y =   34.69  mm,	Z =   -59.0  mm,
    W =     0.00 deg,	P =     0.00 deg,	R =    0.00 deg
};
P[204]
   GP1:
    UF : 0, UT : 1,		CONFIG : ,
    X =   673.28  mm,	Y =   28.51  mm,	Z =   -59.0  mm,
    W =     0.00 deg,	P =     0.00 deg,	R =    0.00 deg
};
P[205]
   GP1:
    UF : 0, UT : 1,		CONFIG : ,
    X =   667.32  mm,	Y =   22.42  mm,	Z =   -59.0  mm,
    W =     0.00 deg,	P =     0.00 deg,	R =    0.00 deg
};
P[206]
   GP1:
    UF : 0, UT : 1,		CONFIG : ,
    X =   661.4  mm,	Y =   16.23  mm,	Z =   -59.0  mm,
    W =     0.00 deg,	P =     0.00 deg,	R =    0.00 deg
};
P[207]
   GP1:
    UF : 0, UT : 1,		CONFIG : ,
    X =   655.17  mm,	Y =   3.71  mm,	Z =   -59.0  mm,
    W =     0.00 deg,	P =     0.00 deg,	R =    0.00 deg
};
P[208]
   GP1:
    UF : 0, UT : 1,		CONFIG : ,
    X =   673.19  mm,	Y =   -14.51  mm,	Z =   -59.0  mm,
    W =     0.00 deg,	P =     0.00 deg,	R =    0.00 deg
};
P[209]
   GP1:
    UF : 0, UT : 1,		CONFIG : ,
    X =   655.49  mm,	Y =   -32.98  mm,	Z =   -59.0  mm,
    W =     0.00 deg,	P =     0.00 deg,	R =    0.00 deg
};
P[210]
   GP1:
    UF : 0, UT : 1,		CONFIG : ,
    X =   661.73  mm,	Y =   -45.4  mm,	Z =   -59.0  mm,
    W =     0.00 deg,	P =     0.00 deg,	R =    0.00 deg
};
P[211]
   GP1:
    UF : 0, UT : 1,		CONFIG : ,
    X =   667.2  mm,	Y =   -52.38  mm,	Z =   -59.0  mm,
    W =     0.00 deg,	P =     0.00 deg,	R =    0.00 deg
};
P[212]
   GP1:
    UF : 0, UT : 1,		CONFIG : ,
    X =   673.55  mm,	Y =   -57.62  mm,	Z =   -59.0  mm,
    W =     0.00 deg,	P =     0.00 deg,	R =    0.00 deg
};
P[213]
   GP1:
    UF : 0, UT : 1,		CONFIG : ,
    X =   685.55  mm,	Y =   -64.07  mm,	Z =   -59.0  mm,
    W =     0.00 deg,	P =     0.00 deg,	R =    0.00 deg
};
P[214]
   GP1:
    UF : 0, UT : 1,		CONFIG : ,
    X =   703.62  mm,	Y =   -46.02  mm,	Z =   -59.0  mm,
    W =     0.00 deg,	P =     0.00 deg,	R =    0.00 deg
};
P[215]
   GP1:
    UF : 0, UT : 1,		CONFIG : ,
    X =   721.74  mm,	Y =   -64.36  mm,	Z =   -59.0  mm,
    W =     0.00 deg,	P =     0.00 deg,	R =    0.00 deg
};
P[216]
   GP1:
    UF : 0, UT : 1,		CONFIG : ,
    X =   733.79  mm,	Y =   -57.9  mm,	Z =   -59.0  mm,
    W =     0.00 deg,	P =     0.00 deg,	R =    0.00 deg
};
P[217]
   GP1:
    UF : 0, UT : 1,		CONFIG : ,
    X =   739.77  mm,	Y =   -52.29  mm,	Z =   -59.0  mm,
    W =     0.00 deg,	P =     0.00 deg,	R =    0.00 deg
};
P[218]
   GP1:
    UF : 0, UT : 1,		CONFIG : ,
    X =   745.55  mm,	Y =   -45.43  mm,	Z =   -59.0  mm,
    W =     0.00 deg,	P =     0.00 deg,	R =    0.00 deg
};
P[219]
   GP1:
    UF : 0, UT : 1,		CONFIG : ,
    X =   752.12  mm,	Y =   -33.12  mm,	Z =   -59.0  mm,
    W =     0.00 deg,	P =     0.00 deg,	R =    0.00 deg
};
P[220]
   GP1:
    UF : 0, UT : 1,		CONFIG : ,
    X =   735.16  mm,	Y =   -15.59  mm,	Z =   -59.0  mm,
    W =     0.00 deg,	P =     0.00 deg,	R =    0.00 deg
};
P[221]
   GP1:
    UF : 0, UT : 1,		CONFIG : ,
    X =   725.18  mm,	Y =   -15.45  mm,	Z =   -21.44  mm,
    W =     0.00 deg,	P =     0.00 deg,	R =    0.00 deg
};
P[222]
   GP1:
    UF : 0, UT : 1,		CONFIG : ,
    X =   729.17  mm,	Y =   28.06  mm,	Z =   -59.0  mm,
    W =     0.00 deg,	P =     0.00 deg,	R =    0.00 deg
};
P[223]
   GP1:
    UF : 0, UT : 1,		CONFIG : ,
    X =   718.66  mm,	Y =   27.75  mm,	Z =   -59.0  mm,
    W =     0.00 deg,	P =     0.00 deg,	R =    0.00 deg
};
P[224]
   GP1:
    UF : 0, UT : 1,		CONFIG : ,
    X =   715.09  mm,	Y =   24.71  mm,	Z =   -59.0  mm,
    W =     0.00 deg,	P =     0.00 deg,	R =    0.00 deg
};
P[225]
   GP1:
    UF : 0, UT : 1,		CONFIG : ,
    X =   734.44  mm,	Y =   24.4  mm,	Z =   -59.0  mm,
    W =     0.00 deg,	P =     0.00 deg,	R =    0.00 deg
};
P[226]
   GP1:
    UF : 0, UT : 1,		CONFIG : ,
    X =   729.38  mm,	Y =   -15.79  mm,	Z =   -32.34  mm,
    W =     0.00 deg,	P =     0.00 deg,	R =    0.00 deg
};
P[227]
   GP1:
    UF : 0, UT : 1,		CONFIG : ,
    X =   738.32  mm,	Y =   20.87  mm,	Z =   -59.0  mm,
    W =     0.00 deg,	P =     0.00 deg,	R =    0.00 deg
};
P[228]
   GP1:
    UF : 0, UT : 1,		CONFIG : ,
    X =   711.68  mm,	Y =   20.9  mm,	Z =   -59.0  mm,
    W =     0.00 deg,	P =     0.00 deg,	R =    0.00 deg
};
P[229]
   GP1:
    UF : 0, UT : 1,		CONFIG : ,
    X =   707.94  mm,	Y =   17.23  mm,	Z =   -59.0  mm,
    W =     0.00 deg,	P =     0.00 deg,	R =    0.00 deg
};
P[230]
   GP1:
    UF : 0, UT : 1,		CONFIG : ,
    X =   741.15  mm,	Y =   17.08  mm,	Z =   -59.0  mm,
    W =     0.00 deg,	P =     0.00 deg,	R =    0.00 deg
};
P[231]
   GP1:
    UF : 0, UT : 1,		CONFIG : ,
    X =   738.75  mm,	Y =   16.51  mm,	Z =   -43.86  mm,
    W =     0.00 deg,	P =     0.00 deg,	R =    0.00 deg
};
P[232]
   GP1:
    UF : 0, UT : 1,		CONFIG : ,
    X =   675.33  mm,	Y =   28.48  mm,	Z =   -35.26  mm,
    W =     0.00 deg,	P =     0.00 deg,	R =    0.00 deg
};
P[233]
   GP1:
    UF : 0, UT : 1,		CONFIG : ,
    X =   678.11  mm,	Y =   27.78  mm,	Z =   -59.0  mm,
    W =     0.00 deg,	P =     0.00 deg,	R =    0.00 deg
};
P[234]
   GP1:
    UF : 0, UT : 1,		CONFIG : ,
    X =   689.22  mm,	Y =   27.79  mm,	Z =   -59.0  mm,
    W =     0.00 deg,	P =     0.00 deg,	R =    0.00 deg
};
P[235]
   GP1:
    UF : 0, UT : 1,		CONFIG : ,
    X =   692.69  mm,	Y =   24.13  mm,	Z =   -59.0  mm,
    W =     0.00 deg,	P =     0.00 deg,	R =    0.00 deg
};
P[236]
   GP1:
    UF : 0, UT : 1,		CONFIG : ,
    X =   673.44  mm,	Y =   24.38  mm,	Z =   -59.0  mm,
    W =     0.00 deg,	P =     0.00 deg,	R =    0.00 deg
};
P[237]
   GP1:
    UF : 0, UT : 1,		CONFIG : ,
    X =   669.43  mm,	Y =   20.58  mm,	Z =   -59.0  mm,
    W =     0.00 deg,	P =     0.00 deg,	R =    0.00 deg
};
P[238]
   GP1:
    UF : 0, UT : 1,		CONFIG : ,
    X =   696.33  mm,	Y =   20.62  mm,	Z =   -59.0  mm,
    W =     0.00 deg,	P =     0.00 deg,	R =    0.00 deg
};
P[239]
   GP1:
    UF : 0, UT : 1,		CONFIG : ,
    X =   699.52  mm,	Y =   17.14  mm,	Z =   -59.0  mm,
    W =     0.00 deg,	P =     0.00 deg,	R =    0.00 deg
};
P[240]
   GP1:
    UF : 0, UT : 1,		CONFIG : ,
    X =   666.5  mm,	Y =   17.36  mm,	Z =   -59.0  mm,
    W =     0.00 deg,	P =     0.00 deg,	R =    0.00 deg
};
P[241]
   GP1:
    UF : 0, UT : 1,		CONFIG : ,
    X =   664.27  mm,	Y =   13.81  mm,	Z =   -59.0  mm,
    W =     0.00 deg,	P =     0.00 deg,	R =    0.00 deg
};
P[242]
   GP1:
    UF : 0, UT : 1,		CONFIG : ,
    X =   743.84  mm,	Y =   13.85  mm,	Z =   -59.0  mm,
    W =     0.00 deg,	P =     0.00 deg,	R =    0.00 deg
};
P[243]
   GP1:
    UF : 0, UT : 1,		CONFIG : ,
    X =   745.96  mm,	Y =   10.17  mm,	Z =   -59.0  mm,
    W =     0.00 deg,	P =     0.00 deg,	R =    0.00 deg
};
P[244]
   GP1:
    UF : 0, UT : 1,		CONFIG : ,
    X =   661.65  mm,	Y =   10.06  mm,	Z =   -59.0  mm,
    W =     0.00 deg,	P =     0.00 deg,	R =    0.00 deg
};
P[245]
   GP1:
    UF : 0, UT : 1,		CONFIG : ,
    X =   659.92  mm,	Y =   6.35  mm,	Z =   -59.0  mm,
    W =     0.00 deg,	P =     0.00 deg,	R =    0.00 deg
};
P[246]
   GP1:
    UF : 0, UT : 1,		CONFIG : ,
    X =   747.52  mm,	Y =   6.47  mm,	Z =   -59.0  mm,
    W =     0.00 deg,	P =     0.00 deg,	R =    0.00 deg
};
P[247]
   GP1:
    UF : 0, UT : 1,		CONFIG : ,
    X =   747.75  mm,	Y =   2.72  mm,	Z =   -59.0  mm,
    W =     0.00 deg,	P =     0.00 deg,	R =    0.00 deg
};
P[248]
   GP1:
    UF : 0, UT : 1,		CONFIG : ,
    X =   660.25  mm,	Y =   2.95  mm,	Z =   -59.0  mm,
    W =     0.00 deg,	P =     0.00 deg,	R =    0.00 deg
};
P[249]
   GP1:
    UF : 0, UT : 1,		CONFIG : ,
    X =   662.7  mm,	Y =   -0.68  mm,	Z =   -59.0  mm,
    W =     0.00 deg,	P =     0.00 deg,	R =    0.00 deg
};
P[250]
   GP1:
    UF : 0, UT : 1,		CONFIG : ,
    X =   744.18  mm,	Y =   -0.73  mm,	Z =   -59.0  mm,
    W =     0.00 deg,	P =     0.00 deg,	R =    0.00 deg
};
P[251]
   GP1:
    UF : 0, UT : 1,		CONFIG : ,
    X =   740.71  mm,	Y =   -4.24  mm,	Z =   -59.0  mm,
    W =     0.00 deg,	P =     0.00 deg,	R =    0.00 deg
};
P[252]
   GP1:
    UF : 0, UT : 1,		CONFIG : ,
    X =   666.9  mm,	Y =   -4.03  mm,	Z =   -59.0  mm,
    W =     0.00 deg,	P =     0.00 deg,	R =    0.00 deg
};
P[253]
   GP1:
    UF : 0, UT : 1,		CONFIG : ,
    X =   670.01  mm,	Y =   -7.83  mm,	Z =   -59.0  mm,
    W =     0.00 deg,	P =     0.00 deg,	R =    0.00 deg
};
P[254]
   GP1:
    UF : 0, UT : 1,		CONFIG : ,
    X =   737.56  mm,	Y =   -7.92  mm,	Z =   -59.0  mm,
    W =     0.00 deg,	P =     0.00 deg,	R =    0.00 deg
};
P[255]
   GP1:
    UF : 0, UT : 1,		CONFIG : ,
    X =   734.35  mm,	Y =   -11.22  mm,	Z =   -59.0  mm,
    W =     0.00 deg,	P =     0.00 deg,	R =    0.00 deg
};
P[256]
   GP1:
    UF : 0, UT : 1,		CONFIG : ,
    X =   674.14  mm,	Y =   -11.33  mm,	Z =   -59.0  mm,
    W =     0.00 deg,	P =     0.00 deg,	R =    0.00 deg
};
P[257]
   GP1:
    UF : 0, UT : 1,		CONFIG : ,
    X =   676.36  mm,	Y =   -14.97  mm,	Z =   -59.0  mm,
    W =     0.00 deg,	P =     0.00 deg,	R =    0.00 deg
};
P[258]
   GP1:
    UF : 0, UT : 1,		CONFIG : ,
    X =   731.68  mm,	Y =   -14.89  mm,	Z =   -59.0  mm,
    W =     0.00 deg,	P =     0.00 deg,	R =    0.00 deg
};
P[259]
   GP1:
    UF : 0, UT : 1,		CONFIG : ,
    X =   734.45  mm,	Y =   -18.63  mm,	Z =   -59.0  mm,
    W =     0.00 deg,	P =     0.00 deg,	R =    0.00 deg
};
P[260]
   GP1:
    UF : 0, UT : 1,		CONFIG : ,
    X =   673.57  mm,	Y =   -18.65  mm,	Z =   -59.0  mm,
    W =     0.00 deg,	P =     0.00 deg,	R =    0.00 deg
};
P[261]
   GP1:
    UF : 0, UT : 1,		CONFIG : ,
    X =   670.23  mm,	Y =   -21.97  mm,	Z =   -59.0  mm,
    W =     0.00 deg,	P =     0.00 deg,	R =    0.00 deg
};
P[262]
   GP1:
    UF : 0, UT : 1,		CONFIG : ,
    X =   737.99  mm,	Y =   -21.99  mm,	Z =   -59.0  mm,
    W =     0.00 deg,	P =     0.00 deg,	R =    0.00 deg
};
P[263]
   GP1:
    UF : 0, UT : 1,		CONFIG : ,
    X =   741.19  mm,	Y =   -25.52  mm,	Z =   -59.0  mm,
    W =     0.00 deg,	P =     0.00 deg,	R =    0.00 deg
};
P[264]
   GP1:
    UF : 0, UT : 1,		CONFIG : ,
    X =   666.37  mm,	Y =   -25.69  mm,	Z =   -59.0  mm,
    W =     0.00 deg,	P =     0.00 deg,	R =    0.00 deg
};
P[265]
   GP1:
    UF : 0, UT : 1,		CONFIG : ,
    X =   662.71  mm,	Y =   -29.35  mm,	Z =   -59.0  mm,
    W =     0.00 deg,	P =     0.00 deg,	R =    0.00 deg
};
P[266]
   GP1:
    UF : 0, UT : 1,		CONFIG : ,
    X =   745.7  mm,	Y =   -29.29  mm,	Z =   -59.0  mm,
    W =     0.00 deg,	P =     0.00 deg,	R =    0.00 deg
};
P[267]
   GP1:
    UF : 0, UT : 1,		CONFIG : ,
    X =   749.29  mm,	Y =   -32.82  mm,	Z =   -59.0  mm,
    W =     0.00 deg,	P =     0.00 deg,	R =    0.00 deg
};
P[268]
   GP1:
    UF : 0, UT : 1,		CONFIG : ,
    X =   659.85  mm,	Y =   -32.93  mm,	Z =   -59.0  mm,
    W =     0.00 deg,	P =     0.00 deg,	R =    0.00 deg
};
P[269]
   GP1:
    UF : 0, UT : 1,		CONFIG : ,
    X =   660.02  mm,	Y =   -36.61  mm,	Z =   -59.0  mm,
    W =     0.00 deg,	P =     0.00 deg,	R =    0.00 deg
};
P[270]
   GP1:
    UF : 0, UT : 1,		CONFIG : ,
    X =   747.61  mm,	Y =   -36.56  mm,	Z =   -59.0  mm,
    W =     0.00 deg,	P =     0.00 deg,	R =    0.00 deg
};
P[271]
   GP1:
    UF : 0, UT : 1,		CONFIG : ,
    X =   746.0  mm,	Y =   -40.23  mm,	Z =   -59.0  mm,
    W =     0.00 deg,	P =     0.00 deg,	R =    0.00 deg
};
P[272]
   GP1:
    UF : 0, UT : 1,		CONFIG : ,
    X =   661.77  mm,	Y =   -40.26  mm,	Z =   -59.0  mm,
    W =     0.00 deg,	P =     0.00 deg,	R =    0.00 deg
};
P[273]
   GP1:
    UF : 0, UT : 1,		CONFIG : ,
    X =   663.79  mm,	Y =   -43.75  mm,	Z =   -59.0  mm,
    W =     0.00 deg,	P =     0.00 deg,	R =    0.00 deg
};
P[274]
   GP1:
    UF : 0, UT : 1,		CONFIG : ,
    X =   743.77  mm,	Y =   -43.6  mm,	Z =   -59.0  mm,
    W =     0.00 deg,	P =     0.00 deg,	R =    0.00 deg
};
P[275]
   GP1:
    UF : 0, UT : 1,		CONFIG : ,
    X =   741.65  mm,	Y =   -47.09  mm,	Z =   -59.0  mm,
    W =     0.00 deg,	P =     0.00 deg,	R =    0.00 deg
};
P[276]
   GP1:
    UF : 0, UT : 1,		CONFIG : ,
    X =   708.03  mm,	Y =   -47.04  mm,	Z =   -59.0  mm,
    W =     0.00 deg,	P =     0.00 deg,	R =    0.00 deg
};
P[277]
   GP1:
    UF : 0, UT : 1,		CONFIG : ,
    X =   711.54  mm,	Y =   -50.52  mm,	Z =   -59.0  mm,
    W =     0.00 deg,	P =     0.00 deg,	R =    0.00 deg
};
P[278]
   GP1:
    UF : 0, UT : 1,		CONFIG : ,
    X =   738.18  mm,	Y =   -50.76  mm,	Z =   -59.0  mm,
    W =     0.00 deg,	P =     0.00 deg,	R =    0.00 deg
};
P[279]
   GP1:
    UF : 0, UT : 1,		CONFIG : ,
    X =   734.75  mm,	Y =   -54.07  mm,	Z =   -59.0  mm,
    W =     0.00 deg,	P =     0.00 deg,	R =    0.00 deg
};
P[280]
   GP1:
    UF : 0, UT : 1,		CONFIG : ,
    X =   714.91  mm,	Y =   -54.27  mm,	Z =   -59.0  mm,
    W =     0.00 deg,	P =     0.00 deg,	R =    0.00 deg
};
P[281]
   GP1:
    UF : 0, UT : 1,		CONFIG : ,
    X =   718.85  mm,	Y =   -57.75  mm,	Z =   -59.0  mm,
    W =     0.00 deg,	P =     0.00 deg,	R =    0.00 deg
};
P[282]
   GP1:
    UF : 0, UT : 1,		CONFIG : ,
    X =   729.54  mm,	Y =   -57.78  mm,	Z =   -59.0  mm,
    W =     0.00 deg,	P =     0.00 deg,	R =    0.00 deg
};
P[283]
   GP1:
    UF : 0, UT : 1,		CONFIG : ,
    X =   729.52  mm,	Y =   -57.77  mm,	Z =   -50.4  mm,
    W =     0.00 deg,	P =     0.00 deg,	R =    0.00 deg
};
P[284]
   GP1:
    UF : 0, UT : 1,		CONFIG : ,
    X =   666.54  mm,	Y =   -46.79  mm,	Z =   -59.0  mm,
    W =     0.00 deg,	P =     0.00 deg,	R =    0.00 deg
};
P[285]
   GP1:
    UF : 0, UT : 1,		CONFIG : ,
    X =   662.47  mm,	Y =   -46.89  mm,	Z =   -42.69  mm,
    W =     0.00 deg,	P =     0.00 deg,	R =    0.00 deg
};
P[286]
   GP1:
    UF : 0, UT : 1,		CONFIG : ,
    X =   700.03  mm,	Y =   -46.94  mm,	Z =   -59.0  mm,
    W =     0.00 deg,	P =     0.00 deg,	R =    0.00 deg
};
P[287]
   GP1:
    UF : 0, UT : 1,		CONFIG : ,
    X =   696.54  mm,	Y =   -50.71  mm,	Z =   -59.0  mm,
    W =     0.00 deg,	P =     0.00 deg,	R =    0.00 deg
};
P[288]
   GP1:
    UF : 0, UT : 1,		CONFIG : ,
    X =   669.51  mm,	Y =   -50.72  mm,	Z =   -59.0  mm,
    W =     0.00 deg,	P =     0.00 deg,	R =    0.00 deg
};
P[289]
   GP1:
    UF : 0, UT : 1,		CONFIG : ,
    X =   673.43  mm,	Y =   -54.04  mm,	Z =   -59.0  mm,
    W =     0.00 deg,	P =     0.00 deg,	R =    0.00 deg
};
P[290]
   GP1:
    UF : 0, UT : 1,		CONFIG : ,
    X =   693.15  mm,	Y =   -54.12  mm,	Z =   -59.0  mm,
    W =     0.00 deg,	P =     0.00 deg,	R =    0.00 deg
};
P[291]
   GP1:
    UF : 0, UT : 1,		CONFIG : ,
    X =   689.65  mm,	Y =   -57.6  mm,	Z =   -59.0  mm,
    W =     0.00 deg,	P =     0.00 deg,	R =    0.00 deg
};
P[292]
   GP1:
    UF : 0, UT : 1,		CONFIG : ,
    X =   678.42  mm,	Y =   -57.58  mm,	Z =   -59.0  mm,
    W =     0.00 deg,	P =     0.00 deg,	R =    0.00 deg
};
P[293]
   GP1:
    UF : 0, UT : 1,		CONFIG : ,
    X =   670.02  mm,	Y =   -57.92  mm,	Z =   -35.91  mm,
    W =     0.00 deg,	P =     0.00 deg,	R =    0.00 deg
};
P[294]
   GP1:
    UF : 0, UT : 1,		CONFIG : ,
    X =   704.88  mm,	Y =   13.12  mm,	Z =   -18.6  mm,
    W =     0.00 deg,	P =     0.00 deg,	R =    0.00 deg
};
P[295]
   GP1:
    UF : 0, UT : 1,		CONFIG : ,
    X =   704.04  mm,	Y =   18.49  mm,	Z =   -56.85  mm,
    W =     0.00 deg,	P =     0.00 deg,	R =    0.00 deg
};
P[296]
   GP1:
    UF : 0, UT : 1,		CONFIG : ,
    X =   685.79  mm,	Y =   36.12  mm,	Z =   -58.47  mm,
    W =     0.00 deg,	P =     0.00 deg,	R =    0.00 deg
};
P[297]
   GP1:
    UF : 0, UT : 1,		CONFIG : ,
    X =   673.54  mm,	Y =   29.97  mm,	Z =   -57.83  mm,
    W =     0.00 deg,	P =     0.00 deg,	R =    0.00 deg
};
P[298]
   GP1:
    UF : 0, UT : 1,		CONFIG : ,
    X =   666.5  mm,	Y =   24.6  mm,	Z =   -57.29  mm,
    W =     0.00 deg,	P =     0.00 deg,	R =    0.00 deg
};
P[299]
   GP1:
    UF : 0, UT : 1,		CONFIG : ,
    X =   661.16  mm,	Y =   17.96  mm,	Z =   -56.63  mm,
    W =     0.00 deg,	P =     0.00 deg,	R =    0.00 deg
};
P[300]
   GP1:
    UF : 0, UT : 1,		CONFIG : ,
    X =   654.73  mm,	Y =   6.69  mm,	Z =   -55.53  mm,
    W =     0.00 deg,	P =     0.00 deg,	R =    0.00 deg
};
P[301]
   GP1:
    UF : 0, UT : 1,		CONFIG : ,
    X =   672.66  mm,	Y =   -10.71  mm,	Z =   -53.93  mm,
    W =     0.00 deg,	P =     0.00 deg,	R =    0.00 deg
};
P[302]
   GP1:
    UF : 0, UT : 1,		CONFIG : ,
    X =   654.34  mm,	Y =   -29.76  mm,	Z =   -52.03  mm,
    W =     0.00 deg,	P =     0.00 deg,	R =    0.00 deg
};
P[303]
   GP1:
    UF : 0, UT : 1,		CONFIG : ,
    X =   660.44  mm,	Y =   -41.84  mm,	Z =   -50.89  mm,
    W =     0.00 deg,	P =     0.00 deg,	R =    0.00 deg
};
P[304]
   GP1:
    UF : 0, UT : 1,		CONFIG : ,
    X =   666.5  mm,	Y =   -47.81  mm,	Z =   -50.34  mm,
    W =     0.00 deg,	P =     0.00 deg,	R =    0.00 deg
};
P[305]
   GP1:
    UF : 0, UT : 1,		CONFIG : ,
    X =   672.65  mm,	Y =   -53.74  mm,	Z =   -49.8  mm,
    W =     0.00 deg,	P =     0.00 deg,	R =    0.00 deg
};
P[306]
   GP1:
    UF : 0, UT : 1,		CONFIG : ,
    X =   685.13  mm,	Y =   -60.03  mm,	Z =   -49.24  mm,
    W =     0.00 deg,	P =     0.00 deg,	R =    0.00 deg
};
P[307]
   GP1:
    UF : 0, UT : 1,		CONFIG : ,
    X =   703.47  mm,	Y =   -42.21  mm,	Z =   -51.02  mm,
    W =     0.00 deg,	P =     0.00 deg,	R =    0.00 deg
};
P[308]
   GP1:
    UF : 0, UT : 1,		CONFIG : ,
    X =   721.82  mm,	Y =   -59.96  mm,	Z =   -49.39  mm,
    W =     0.00 deg,	P =     0.00 deg,	R =    0.00 deg
};
P[309]
   GP1:
    UF : 0, UT : 1,		CONFIG : ,
    X =   734.28  mm,	Y =   -53.83  mm,	Z =   -50.02  mm,
    W =     0.00 deg,	P =     0.00 deg,	R =    0.00 deg
};
P[310]
   GP1:
    UF : 0, UT : 1,		CONFIG : ,
    X =   741.3  mm,	Y =   -48.43  mm,	Z =   -50.57  mm,
    W =     0.00 deg,	P =     0.00 deg,	R =    0.00 deg
};
P[311]
   GP1:
    UF : 0, UT : 1,		CONFIG : ,
    X =   746.58  mm,	Y =   -42.15  mm,	Z =   -51.19  mm,
    W =     0.00 deg,	P =     0.00 deg,	R =    0.00 deg
};
P[312]
   GP1:
    UF : 0, UT : 1,		CONFIG : ,
    X =   753.11  mm,	Y =   -30.25  mm,	Z =   -52.36  mm,
    W =     0.00 deg,	P =     0.00 deg,	R =    0.00 deg
};
P[313]
   GP1:
    UF : 0, UT : 1,		CONFIG : ,
    X =   735.17  mm,	Y =   -12.14  mm,	Z =   -54.03  mm,
    W =     0.00 deg,	P =     0.00 deg,	R =    0.00 deg
};
P[314]
   GP1:
    UF : 0, UT : 1,		CONFIG : ,
    X =   753.63  mm,	Y =   5.78  mm,	Z =   -55.82  mm,
    W =     0.00 deg,	P =     0.00 deg,	R =    0.00 deg
};
P[315]
   GP1:
    UF : 0, UT : 1,		CONFIG : ,
    X =   747.24  mm,	Y =   17.81  mm,	Z =   -56.95  mm,
    W =     0.00 deg,	P =     0.00 deg,	R =    0.00 deg
};
P[316]
   GP1:
    UF : 0, UT : 1,		CONFIG : ,
    X =   741.67  mm,	Y =   23.81  mm,	Z =   -57.5  mm,
    W =     0.00 deg,	P =     0.00 deg,	R =    0.00 deg
};
P[317]
   GP1:
    UF : 0, UT : 1,		CONFIG : ,
    X =   734.85  mm,	Y =   29.6  mm,	Z =   -58.03  mm,
    W =     0.00 deg,	P =     0.00 deg,	R =    0.00 deg
};
P[318]
   GP1:
    UF : 0, UT : 1,		CONFIG : ,
    X =   722.58  mm,	Y =   36.23  mm,	Z =   -58.62  mm,
    W =     0.00 deg,	P =     0.00 deg,	R =    0.00 deg
};
P[319]
   GP1:
    UF : 0, UT : 1,		CONFIG : ,
    X =   704.95  mm,	Y =   19.46  mm,	Z =   -56.94  mm,
    W =     0.00 deg,	P =     0.00 deg,	R =    0.00 deg
};
P[320]
   GP1:
    UF : 0, UT : 1,		CONFIG : ,
    X =   705.21  mm,	Y =   16.25  mm,	Z =   -29.86  mm,
    W =     0.00 deg,	P =     0.00 deg,	R =    0.00 deg
};
P[321]
   GP1:
    UF : 0, UT : 1,		CONFIG : ,
    X =   661.26  mm,	Y =   13.8  mm,	Z =   -56.23  mm,
    W =     0.00 deg,	P =     0.00 deg,	R =    0.00 deg
};
P[322]
   GP1:
    UF : 0, UT : 1,		CONFIG : ,
    X =   661.5  mm,	Y =   3.34  mm,	Z =   -55.23  mm,
    W =     0.00 deg,	P =     0.00 deg,	R =    0.00 deg
};
P[323]
   GP1:
    UF : 0, UT : 1,		CONFIG : ,
    X =   664.51  mm,	Y =   -0.24  mm,	Z =   -54.9  mm,
    W =     0.00 deg,	P =     0.00 deg,	R =    0.00 deg
};
P[324]
   GP1:
    UF : 0, UT : 1,		CONFIG : ,
    X =   664.96  mm,	Y =   19.02  mm,	Z =   -56.75  mm,
    W =     0.00 deg,	P =     0.00 deg,	R =    0.00 deg
};
P[325]
   GP1:
    UF : 0, UT : 1,		CONFIG : ,
    X =   668.51  mm,	Y =   22.86  mm,	Z =   -57.13  mm,
    W =     0.00 deg,	P =     0.00 deg,	R =    0.00 deg
};
P[326]
   GP1:
    UF : 0, UT : 1,		CONFIG : ,
    X =   668.31  mm,	Y =   -3.66  mm,	Z =   -54.59  mm,
    W =     0.00 deg,	P =     0.00 deg,	R =    0.00 deg
};
P[327]
   GP1:
    UF : 0, UT : 1,		CONFIG : ,
    X =   671.95  mm,	Y =   -7.41  mm,	Z =   -54.24  mm,
    W =     0.00 deg,	P =     0.00 deg,	R =    0.00 deg
};
P[328]
   GP1:
    UF : 0, UT : 1,		CONFIG : ,
    X =   672.32  mm,	Y =   25.65  mm,	Z =   -57.41  mm,
    W =     0.00 deg,	P =     0.00 deg,	R =    0.00 deg
};
P[329]
   GP1:
    UF : 0, UT : 1,		CONFIG : ,
    X =   672.93  mm,	Y =   24.7  mm,	Z =   -42.11  mm,
    W =     0.00 deg,	P =     0.00 deg,	R =    0.00 deg
};
P[330]
   GP1:
    UF : 0, UT : 1,		CONFIG : ,
    X =   660.58  mm,	Y =   -37.53  mm,	Z =   -27.46  mm,
    W =     0.00 deg,	P =     0.00 deg,	R =    0.00 deg
};
P[331]
   GP1:
    UF : 0, UT : 1,		CONFIG : ,
    X =   661.21  mm,	Y =   -37.02  mm,	Z =   -51.36  mm,
    W =     0.00 deg,	P =     0.00 deg,	R =    0.00 deg
};
P[332]
   GP1:
    UF : 0, UT : 1,		CONFIG : ,
    X =   661.27  mm,	Y =   -25.97  mm,	Z =   -52.42  mm,
    W =     0.00 deg,	P =     0.00 deg,	R =    0.00 deg
};
P[333]
   GP1:
    UF : 0, UT : 1,		CONFIG : ,
    X =   664.95  mm,	Y =   -22.54  mm,	Z =   -52.76  mm,
    W =     0.00 deg,	P =     0.00 deg,	R =    0.00 deg
};
P[334]
   GP1:
    UF : 0, UT : 1,		CONFIG : ,
    X =   664.58  mm,	Y =   -41.7  mm,	Z =   -50.92  mm,
    W =     0.00 deg,	P =     0.00 deg,	R =    0.00 deg
};
P[335]
   GP1:
    UF : 0, UT : 1,		CONFIG : ,
    X =   668.35  mm,	Y =   -45.72  mm,	Z =   -50.55  mm,
    W =     0.00 deg,	P =     0.00 deg,	R =    0.00 deg
};
P[336]
   GP1:
    UF : 0, UT : 1,		CONFIG : ,
    X =   668.48  mm,	Y =   -18.94  mm,	Z =   -53.12  mm,
    W =     0.00 deg,	P =     0.00 deg,	R =    0.00 deg
};
P[337]
   GP1:
    UF : 0, UT : 1,		CONFIG : ,
    X =   671.99  mm,	Y =   -15.79  mm,	Z =   -53.44  mm,
    W =     0.00 deg,	P =     0.00 deg,	R =    0.00 deg
};
P[338]
   GP1:
    UF : 0, UT : 1,		CONFIG : ,
    X =   671.55  mm,	Y =   -48.66  mm,	Z =   -50.28  mm,
    W =     0.00 deg,	P =     0.00 deg,	R =    0.00 deg
};
P[339]
   GP1:
    UF : 0, UT : 1,		CONFIG : ,
    X =   675.09  mm,	Y =   -50.9  mm,	Z =   -50.08  mm,
    W =     0.00 deg,	P =     0.00 deg,	R =    0.00 deg
};
P[340]
   GP1:
    UF : 0, UT : 1,		CONFIG : ,
    X =   675.56  mm,	Y =   28.31  mm,	Z =   -57.68  mm,
    W =     0.00 deg,	P =     0.00 deg,	R =    0.00 deg
};
P[341]
   GP1:
    UF : 0, UT : 1,		CONFIG : ,
    X =   679.26  mm,	Y =   30.39  mm,	Z =   -57.89  mm,
    W =     0.00 deg,	P =     0.00 deg,	R =    0.00 deg
};
P[342]
   GP1:
    UF : 0, UT : 1,		CONFIG : ,
    X =   678.82  mm,	Y =   -53.54  mm,	Z =   -49.84  mm,
    W =     0.00 deg,	P =     0.00 deg,	R =    0.00 deg
};
P[343]
   GP1:
    UF : 0, UT : 1,		CONFIG : ,
    X =   682.52  mm,	Y =   -55.28  mm,	Z =   -49.69  mm,
    W =     0.00 deg,	P =     0.00 deg,	R =    0.00 deg
};
P[344]
   GP1:
    UF : 0, UT : 1,		CONFIG : ,
    X =   682.96  mm,	Y =   31.92  mm,	Z =   -58.06  mm,
    W =     0.00 deg,	P =     0.00 deg,	R =    0.00 deg
};
P[345]
   GP1:
    UF : 0, UT : 1,		CONFIG : ,
    X =   686.72  mm,	Y =   32.12  mm,	Z =   -58.09  mm,
    W =     0.00 deg,	P =     0.00 deg,	R =    0.00 deg
};
P[346]
   GP1:
    UF : 0, UT : 1,		CONFIG : ,
    X =   685.92  mm,	Y =   -54.98  mm,	Z =   -49.73  mm,
    W =     0.00 deg,	P =     0.00 deg,	R =    0.00 deg
};
P[347]
   GP1:
    UF : 0, UT : 1,		CONFIG : ,
    X =   689.56  mm,	Y =   -52.56  mm,	Z =   -49.97  mm,
    W =     0.00 deg,	P =     0.00 deg,	R =    0.00 deg
};
P[348]
   GP1:
    UF : 0, UT : 1,		CONFIG : ,
    X =   690.14  mm,	Y =   28.54  mm,	Z =   -57.76  mm,
    W =     0.00 deg,	P =     0.00 deg,	R =    0.00 deg
};
P[349]
   GP1:
    UF : 0, UT : 1,		CONFIG : ,
    X =   693.63  mm,	Y =   25.07  mm,	Z =   -57.44  mm,
    W =     0.00 deg,	P =     0.00 deg,	R =    0.00 deg
};
P[350]
   GP1:
    UF : 0, UT : 1,		CONFIG : ,
    X =   692.94  mm,	Y =   -48.41  mm,	Z =   -50.39  mm,
    W =     0.00 deg,	P =     0.00 deg,	R =    0.00 deg
};
P[351]
   GP1:
    UF : 0, UT : 1,		CONFIG : ,
    X =   696.76  mm,	Y =   -45.33  mm,	Z =   -50.7  mm,
    W =     0.00 deg,	P =     0.00 deg,	R =    0.00 deg
};
P[352]
   GP1:
    UF : 0, UT : 1,		CONFIG : ,
    X =   697.29  mm,	Y =   21.91  mm,	Z =   -57.15  mm,
    W =     0.00 deg,	P =     0.00 deg,	R =    0.00 deg
};
P[353]
   GP1:
    UF : 0, UT : 1,		CONFIG : ,
    X =   700.57  mm,	Y =   18.68  mm,	Z =   -56.85  mm,
    W =     0.00 deg,	P =     0.00 deg,	R =    0.00 deg
};
P[354]
   GP1:
    UF : 0, UT : 1,		CONFIG : ,
    X =   700.29  mm,	Y =   -41.25  mm,	Z =   -51.1  mm,
    W =     0.00 deg,	P =     0.00 deg,	R =    0.00 deg
};
P[355]
   GP1:
    UF : 0, UT : 1,		CONFIG : ,
    X =   703.95  mm,	Y =   -39.06  mm,	Z =   -51.32  mm,
    W =     0.00 deg,	P =     0.00 deg,	R =    0.00 deg
};
P[356]
   GP1:
    UF : 0, UT : 1,		CONFIG : ,
    X =   704.22  mm,	Y =   16.0  mm,	Z =   -56.61  mm,
    W =     0.00 deg,	P =     0.00 deg,	R =    0.00 deg
};
P[357]
   GP1:
    UF : 0, UT : 1,		CONFIG : ,
    X =   707.98  mm,	Y =   18.74  mm,	Z =   -56.89  mm,
    W =     0.00 deg,	P =     0.00 deg,	R =    0.00 deg
};
P[358]
   GP1:
    UF : 0, UT : 1,		CONFIG : ,
    X =   707.61  mm,	Y =   -41.86  mm,	Z =   -51.07  mm,
    W =     0.00 deg,	P =     0.00 deg,	R =    0.00 deg
};
P[359]
   GP1:
    UF : 0, UT : 1,		CONFIG : ,
    X =   710.91  mm,	Y =   -45.21  mm,	Z =   -50.76  mm,
    W =     0.00 deg,	P =     0.00 deg,	R =    0.00 deg
};
P[360]
   GP1:
    UF : 0, UT : 1,		CONFIG : ,
    X =   711.36  mm,	Y =   22.24  mm,	Z =   -57.23  mm,
    W =     0.00 deg,	P =     0.00 deg,	R =    0.00 deg
};
P[361]
   GP1:
    UF : 0, UT : 1,		CONFIG : ,
    X =   714.92  mm,	Y =   25.39  mm,	Z =   -57.55  mm,
    W =     0.00 deg,	P =     0.00 deg,	R =    0.00 deg
};
P[362]
   GP1:
    UF : 0, UT : 1,		CONFIG : ,
    X =   714.6  mm,	Y =   -49.08  mm,	Z =   -50.4  mm,
    W =     0.00 deg,	P =     0.00 deg,	R =    0.00 deg
};
P[363]
   GP1:
    UF : 0, UT : 1,		CONFIG : ,
    X =   718.23  mm,	Y =   -52.75  mm,	Z =   -50.07  mm,
    W =     0.00 deg,	P =     0.00 deg,	R =    0.00 deg
};
P[364]
   GP1:
    UF : 0, UT : 1,		CONFIG : ,
    X =   718.71  mm,	Y =   29.86  mm,	Z =   -57.99  mm,
    W =     0.00 deg,	P =     0.00 deg,	R =    0.00 deg
};
P[365]
   GP1:
    UF : 0, UT : 1,		CONFIG : ,
    X =   722.27  mm,	Y =   33.41  mm,	Z =   -58.35  mm,
    W =     0.00 deg,	P =     0.00 deg,	R =    0.00 deg
};
P[366]
   GP1:
    UF : 0, UT : 1,		CONFIG : ,
    X =   721.8  mm,	Y =   -55.61  mm,	Z =   -49.8  mm,
    W =     0.00 deg,	P =     0.00 deg,	R =    0.00 deg
};
P[367]
   GP1:
    UF : 0, UT : 1,		CONFIG : ,
    X =   725.48  mm,	Y =   -55.47  mm,	Z =   -49.83  mm,
    W =     0.00 deg,	P =     0.00 deg,	R =    0.00 deg
};
P[368]
   GP1:
    UF : 0, UT : 1,		CONFIG : ,
    X =   726.0  mm,	Y =   31.71  mm,	Z =   -58.2  mm,
    W =     0.00 deg,	P =     0.00 deg,	R =    0.00 deg
};
P[369]
   GP1:
    UF : 0, UT : 1,		CONFIG : ,
    X =   729.65  mm,	Y =   30.08  mm,	Z =   -58.06  mm,
    W =     0.00 deg,	P =     0.00 deg,	R =    0.00 deg
};
P[370]
   GP1:
    UF : 0, UT : 1,		CONFIG : ,
    X =   729.14  mm,	Y =   -53.76  mm,	Z =   -50.01  mm,
    W =     0.00 deg,	P =     0.00 deg,	R =    0.00 deg
};
P[371]
   GP1:
    UF : 0, UT : 1,		CONFIG : ,
    X =   732.64  mm,	Y =   -51.77  mm,	Z =   -50.21  mm,
    W =     0.00 deg,	P =     0.00 deg,	R =    0.00 deg
};
P[372]
   GP1:
    UF : 0, UT : 1,		CONFIG : ,
    X =   733.01  mm,	Y =   27.85  mm,	Z =   -57.86  mm,
    W =     0.00 deg,	P =     0.00 deg,	R =    0.00 deg
};
P[373]
   GP1:
    UF : 0, UT : 1,		CONFIG : ,
    X =   736.49  mm,	Y =   25.71  mm,	Z =   -57.66  mm,
    W =     0.00 deg,	P =     0.00 deg,	R =    0.00 deg
};
P[374]
   GP1:
    UF : 0, UT : 1,		CONFIG : ,
    X =   736.22  mm,	Y =   -7.76  mm,	Z =   -54.45  mm,
    W =     0.00 deg,	P =     0.00 deg,	R =    0.00 deg
};
P[375]
   GP1:
    UF : 0, UT : 1,		CONFIG : ,
    X =   739.72  mm,	Y =   -4.28  mm,	Z =   -54.8  mm,
    W =     0.00 deg,	P =     0.00 deg,	R =    0.00 deg
};
P[376]
   GP1:
    UF : 0, UT : 1,		CONFIG : ,
    X =   740.14  mm,	Y =   22.23  mm,	Z =   -57.34  mm,
    W =     0.00 deg,	P =     0.00 deg,	R =    0.00 deg
};
P[377]
   GP1:
    UF : 0, UT : 1,		CONFIG : ,
    X =   743.42  mm,	Y =   18.8  mm,	Z =   -57.03  mm,
    W =     0.00 deg,	P =     0.00 deg,	R =    0.00 deg
};
P[378]
   GP1:
    UF : 0, UT : 1,		CONFIG : ,
    X =   743.5  mm,	Y =   -0.96  mm,	Z =   -55.13  mm,
    W =     0.00 deg,	P =     0.00 deg,	R =    0.00 deg
};
P[379]
   GP1:
    UF : 0, UT : 1,		CONFIG : ,
    X =   746.99  mm,	Y =   2.94  mm,	Z =   -55.52  mm,
    W =     0.00 deg,	P =     0.00 deg,	R =    0.00 deg
};
P[380]
   GP1:
    UF : 0, UT : 1,		CONFIG : ,
    X =   747.1  mm,	Y =   13.58  mm,	Z =   -56.54  mm,
    W =     0.00 deg,	P =     0.00 deg,	R =    0.00 deg
};
P[381]
   GP1:
    UF : 0, UT : 1,		CONFIG : ,
    X =   747.12  mm,	Y =   14.39  mm,	Z =   -47.98  mm,
    W =     0.00 deg,	P =     0.00 deg,	R =    0.00 deg
};
P[382]
   GP1:
    UF : 0, UT : 1,		CONFIG : ,
    X =   735.84  mm,	Y =   -51.55  mm,	Z =   -33.87  mm,
    W =     0.00 deg,	P =     0.00 deg,	R =    0.00 deg
};
P[383]
   GP1:
    UF : 0, UT : 1,		CONFIG : ,
    X =   735.7  mm,	Y =   -49.05  mm,	Z =   -50.49  mm,
    W =     0.00 deg,	P =     0.00 deg,	R =    0.00 deg
};
P[384]
   GP1:
    UF : 0, UT : 1,		CONFIG : ,
    X =   736.06  mm,	Y =   -15.72  mm,	Z =   -53.69  mm,
    W =     0.00 deg,	P =     0.00 deg,	R =    0.00 deg
};
P[385]
   GP1:
    UF : 0, UT : 1,		CONFIG : ,
    X =   739.82  mm,	Y =   -19.21  mm,	Z =   -53.37  mm,
    W =     0.00 deg,	P =     0.00 deg,	R =    0.00 deg
};
P[386]
   GP1:
    UF : 0, UT : 1,		CONFIG : ,
    X =   739.65  mm,	Y =   -46.12  mm,	Z =   -50.78  mm,
    W =     0.00 deg,	P =     0.00 deg,	R =    0.00 deg
};
P[387]
   GP1:
    UF : 0, UT : 1,		CONFIG : ,
    X =   743.0  mm,	Y =   -42.25  mm,	Z =   -51.17  mm,
    W =     0.00 deg,	P =     0.00 deg,	R =    0.00 deg
};
P[388]
   GP1:
    UF : 0, UT : 1,		CONFIG : ,
    X =   743.2  mm,	Y =   -22.62  mm,	Z =   -53.05  mm,
    W =     0.00 deg,	P =     0.00 deg,	R =    0.00 deg
};
P[389]
   GP1:
    UF : 0, UT : 1,		CONFIG : ,
    X =   746.66  mm,	Y =   -26.12  mm,	Z =   -52.73  mm,
    W =     0.00 deg,	P =     0.00 deg,	R =    0.00 deg
};
P[390]
   GP1:
    UF : 0, UT : 1,		CONFIG : ,
    X =   746.57  mm,	Y =   -37.3  mm,	Z =   -51.66  mm,
    W =     0.00 deg,	P =     0.00 deg,	R =    0.00 deg
};
P[391]
   GP1:
    UF : 0, UT : 1,		CONFIG : ,
    X =   746.94  mm,	Y =   -43.46  mm,	Z =   -27.87  mm,
    W =     0.00 deg,	P =     0.00 deg,	R =    0.00 deg
};
P[391]
   GP1:
    UF : 0, UT : 1,		CONFIG : ,
    X =   705.04  mm,	Y =   16.33  mm,	Z =   -57.0  mm,
    W =     0.00 deg,	P =     0.00 deg,	R =    0.00 deg
};
P[392]
   GP1:
    UF : 0, UT : 1,		CONFIG : ,
    X =   686.68  mm,	Y =   33.91  mm,	Z =   -57.0  mm,
    W =     0.00 deg,	P =     0.00 deg,	R =    0.00 deg
};
P[393]
   GP1:
    UF : 0, UT : 1,		CONFIG : ,
    X =   674.46  mm,	Y =   27.65  mm,	Z =   -57.0  mm,
    W =     0.00 deg,	P =     0.00 deg,	R =    0.00 deg
};
P[394]
   GP1:
    UF : 0, UT : 1,		CONFIG : ,
    X =   667.46  mm,	Y =   22.21  mm,	Z =   -57.0  mm,
    W =     0.00 deg,	P =     0.00 deg,	R =    0.00 deg
};
P[395]
   GP1:
    UF : 0, UT : 1,		CONFIG : ,
    X =   662.17  mm,	Y =   15.5  mm,	Z =   -57.0  mm,
    W =     0.00 deg,	P =     0.00 deg,	R =    0.00 deg
};
P[396]
   GP1:
    UF : 0, UT : 1,		CONFIG : ,
    X =   655.81  mm,	Y =   4.13  mm,	Z =   -57.0  mm,
    W =     0.00 deg,	P =     0.00 deg,	R =    0.00 deg
};
P[397]
   GP1:
    UF : 0, UT : 1,		CONFIG : ,
    X =   673.85  mm,	Y =   -13.22  mm,	Z =   -57.0  mm,
    W =     0.00 deg,	P =     0.00 deg,	R =    0.00 deg
};
P[398]
   GP1:
    UF : 0, UT : 1,		CONFIG : ,
    X =   655.66  mm,	Y =   -32.48  mm,	Z =   -57.0  mm,
    W =     0.00 deg,	P =     0.00 deg,	R =    0.00 deg
};
P[399]
   GP1:
    UF : 0, UT : 1,		CONFIG : ,
    X =   661.84  mm,	Y =   -44.57  mm,	Z =   -57.0  mm,
    W =     0.00 deg,	P =     0.00 deg,	R =    0.00 deg
};
P[400]
   GP1:
    UF : 0, UT : 1,		CONFIG : ,
    X =   667.93  mm,	Y =   -50.53  mm,	Z =   -57.0  mm,
    W =     0.00 deg,	P =     0.00 deg,	R =    0.00 deg
};
P[401]
   GP1:
    UF : 0, UT : 1,		CONFIG : ,
    X =   674.12  mm,	Y =   -56.45  mm,	Z =   -57.0  mm,
    W =     0.00 deg,	P =     0.00 deg,	R =    0.00 deg
};
P[402]
   GP1:
    UF : 0, UT : 1,		CONFIG : ,
    X =   686.64  mm,	Y =   -62.68  mm,	Z =   -57.0  mm,
    W =     0.00 deg,	P =     0.00 deg,	R =    0.00 deg
};
P[403]
   GP1:
    UF : 0, UT : 1,		CONFIG : ,
    X =   704.86  mm,	Y =   -44.66  mm,	Z =   -57.0  mm,
    W =     0.00 deg,	P =     0.00 deg,	R =    0.00 deg
};
P[404]
   GP1:
    UF : 0, UT : 1,		CONFIG : ,
    X =   723.33  mm,	Y =   -62.36  mm,	Z =   -57.0  mm,
    W =     0.00 deg,	P =     0.00 deg,	R =    0.00 deg
};
P[405]
   GP1:
    UF : 0, UT : 1,		CONFIG : ,
    X =   735.75  mm,	Y =   -56.12  mm,	Z =   -57.0  mm,
    W =     0.00 deg,	P =     0.00 deg,	R =    0.00 deg
};
P[406]
   GP1:
    UF : 0, UT : 1,		CONFIG : ,
    X =   742.73  mm,	Y =   -50.65  mm,	Z =   -57.0  mm,
    W =     0.00 deg,	P =     0.00 deg,	R =    0.00 deg
};
P[407]
   GP1:
    UF : 0, UT : 1,		CONFIG : ,
    X =   747.97  mm,	Y =   -44.3  mm,	Z =   -57.0  mm,
    W =     0.00 deg,	P =     0.00 deg,	R =    0.00 deg
};
P[408]
   GP1:
    UF : 0, UT : 1,		CONFIG : ,
    X =   754.42  mm,	Y =   -32.3  mm,	Z =   -57.0  mm,
    W =     0.00 deg,	P =     0.00 deg,	R =    0.00 deg
};
P[409]
   GP1:
    UF : 0, UT : 1,		CONFIG : ,
    X =   736.37  mm,	Y =   -14.23  mm,	Z =   -57.0  mm,
    W =     0.00 deg,	P =     0.00 deg,	R =    0.00 deg
};
P[410]
   GP1:
    UF : 0, UT : 1,		CONFIG : ,
    X =   754.71  mm,	Y =   3.89  mm,	Z =   -57.0  mm,
    W =     0.00 deg,	P =     0.00 deg,	R =    0.00 deg
};
P[411]
   GP1:
    UF : 0, UT : 1,		CONFIG : ,
    X =   748.25  mm,	Y =   15.94  mm,	Z =   -57.0  mm,
    W =     0.00 deg,	P =     0.00 deg,	R =    0.00 deg
};
P[412]
   GP1:
    UF : 0, UT : 1,		CONFIG : ,
    X =   742.64  mm,	Y =   21.92  mm,	Z =   -57.0  mm,
    W =     0.00 deg,	P =     0.00 deg,	R =    0.00 deg
};
P[413]
   GP1:
    UF : 0, UT : 1,		CONFIG : ,
    X =   735.78  mm,	Y =   27.7  mm,	Z =   -57.0  mm,
    W =     0.00 deg,	P =     0.00 deg,	R =    0.00 deg
};
P[414]
   GP1:
    UF : 0, UT : 1,		CONFIG : ,
    X =   723.47  mm,	Y =   34.27  mm,	Z =   -57.0  mm,
    W =     0.00 deg,	P =     0.00 deg,	R =    0.00 deg
};
P[415]
   GP1:
    UF : 0, UT : 1,		CONFIG : ,
    X =   705.94  mm,	Y =   17.31  mm,	Z =   -57.0  mm,
    W =     0.00 deg,	P =     0.00 deg,	R =    0.00 deg
};
P[416]
   GP1:
    UF : 0, UT : 1,		CONFIG : ,
    X =   705.8  mm,	Y =   7.33  mm,	Z =   -19.44  mm,
    W =     0.00 deg,	P =     0.00 deg,	R =    0.00 deg
};
P[417]
   GP1:
    UF : 0, UT : 1,		CONFIG : ,
    X =   662.29  mm,	Y =   11.32  mm,	Z =   -57.0  mm,
    W =     0.00 deg,	P =     0.00 deg,	R =    0.00 deg
};
P[418]
   GP1:
    UF : 0, UT : 1,		CONFIG : ,
    X =   662.6  mm,	Y =   0.81  mm,	Z =   -57.0  mm,
    W =     0.00 deg,	P =     0.00 deg,	R =    0.00 deg
};
P[419]
   GP1:
    UF : 0, UT : 1,		CONFIG : ,
    X =   665.64  mm,	Y =   -2.76  mm,	Z =   -57.0  mm,
    W =     0.00 deg,	P =     0.00 deg,	R =    0.00 deg
};
P[420]
   GP1:
    UF : 0, UT : 1,		CONFIG : ,
    X =   665.95  mm,	Y =   16.59  mm,	Z =   -57.0  mm,
    W =     0.00 deg,	P =     0.00 deg,	R =    0.00 deg
};
P[421]
   GP1:
    UF : 0, UT : 1,		CONFIG : ,
    X =   706.14  mm,	Y =   11.53  mm,	Z =   -30.34  mm,
    W =     0.00 deg,	P =     0.00 deg,	R =    0.00 deg
};
